!!!!SEGMENT: pl-wn--mus-iii-66-367_zelenski-wladyslaw--variationen-op-21.krn
!!!cenid: 18xx:3695
!!!COM: Żeleński, Władysław
!!!COM-rismID: pe41024455
!!!CDT: 1837/07/06-1921/01/23
!!!CNT: Polish
!!!OTL: Variationen op. 21
!!!PDT:
!!!AGN:
!!!SMS-siglum: PL-Wn
!!!SMS-shelfmark: Mus.III.66.367
!!!SMS-shelfwork: W
!!!SMS-variant:
!!!SMS-altvar:
!!!NIFC-rismSourceID:
!!!NIFC-rismChildID:
!!!NIFC-islandoraID: none
!!!URL-pdf-islandora:
!!!URL-scan: https://polona.pl/item/variationen-uber-ein-original-thema-fur-zwei-violinen-viola-und-violoncell-op-21,Njk4OTY3NzE/0 @EN{Scan on Polona} @PL{Skany w portalu Polona}
!!!IIIF: https://polona.pl/iiif/item/Njk4OTY3NzE/manifest.json
!!!ONB-nifc:
!!!AIN: 2 forte
!!!key: g
**kern	**kern	**dynam	**kern	**kern	**dynam
*part2	*part2	*part2	*part1	*part1	*part1
*staff4	*staff3	*	*staff2	*staff1	*
*I"SECONDO.	*I"SECONDO.	*	*I"PRIMO.	*I"PRIMO.	*
*Iforte	*Iforte	*	*Iforte	*Iforte	*
*ICklav	*ICklav	*	*ICklav	*ICklav	*
*>[A,A,B,B,C,C,D,D,E,E,F,F,G,G,H,I,I,J,J,K,K,L,L,M,M,N]	*>[A,A,B,B,C,C,D,D,E,E,F,F,G,G,H,I,I,J,J,K,K,L,L,M,M,N]	*>[A,A,B,B,C,C,D,D,E,E,F,F,G,G,H,I,I,J,J,K,K,L,L,M,M,N]	*>[A,A,B,B,C,C,D,D,E,E,F,F,G,G,H,I,I,J,J,K,K,L,L,M,M,N]	*>[A,A,B,B,C,C,D,D,E,E,F,F,G,G,H,I,I,J,J,K,K,L,L,M,M,N]	*>[A,A,B,B,C,C,D,D,E,E,F,F,G,G,H,I,I,J,J,K,K,L,L,M,M,N]
*>A	*>A	*>A	*>A	*>A	*>A
*clefF4	*clefG2	*	*clefG2	*clefG2	*
*k[b-e-]	*k[b-e-]	*	*k[b-e-]	*k[b-e-]	*
*g:	*g:	*	*g:	*g:	*
*M2/4	*M2/4	*	*M2/4	*M2/4	*
*xywh-#2:406,317,2655,972	*xywh-#2:406,317,2655,972	*	*xywh-#3:375,255,2595,1056	*xywh-#3:375,255,2595,1056	*
!	!LO:TX:a:B:t=Andante ma non troppo lento.	!	!	!LO:TX:a:B:t=Andante ma non troppo lento.	!
!	!LO:TX:a:B:t=THEMA.	!	!	!LO:TX:a:B:t=THEMA.	!
(8d\	(8dd\	p	8r	8r	.
=1	=1	=1	=1	=1	=1
!	!	!	!	!LO:TX:b:t=5	!
8c#X\L)	8cc#X/L)	.	0r	0r	.
(8G\	(8g/	.	.	.	.
8B-\	8b-/	.	.	.	.
16A\L	16a/L	.	.	.	.
16G\JJ)	16g/JJ)	.	.	.	.
=2	=2	=2	=2	=2	=2
(4E-\	(4e-/	.	.	.	.
8D\L)	8d/L)	.	.	.	.
(8G\J	(8g/J	.	.	.	.
=3	=3	=3	=3	=3	=3
4F#X\)	4f#X/)	.	.	.	.
(<4EnT\	(4enT/	.	.	.	.
16qqD/LL	16qqd/LL	.	.	.	.
16qqE/JJ)	16qqe/JJ)	.	.	.	.
=4	=4	=4	=4	=4	=4
4.D\	4.d/	.	.	.	.
(8d\	(8dd\	.	.	.	.
=5	=5	=5	=5	=5	=5
8c#X\L)	8cc#X/L)	.	2r	2r	.
(8G\	(8g/	.	.	.	.
8B-\	8b-/	<	.	.	.
16A\L	16a/L	.	.	.	.
16G\JJ)	16g/JJ)	[[	.	.	.
=6	=6	=6	=6	=6	=6
*	*	*	*	*^	*
*	*	*	*	*	*xywh-#3:375,255,2595,1056	*
*	*	*	*	*	*cue	*
!	!	!	!	!LO:TX:a:t=Sec.	!	!
(8e-\L	(8ee-\L	<	2r	2re	(>8ee-/L	.
8Bn\)	8bn\)	.	.	.	8bn/)	.
(8d\	(8dd\	.	.	.	(>8dd/	.
16cn\L	16ccn\L	.	.	.	16cc/L	.
16B-X\JJ)	16b-X\JJ)	.	.	.	16b-X/JJ)	.
!LO:LB:g=original	!LO:LB:g=original	!	!	!	!	!
=7	=7	=7	=7	=7	=7	=7
*xywh-#2:495,1220,2517,648	*xywh-#2:495,1220,2517,648	*	*	*	*	*
(4f\	4ff^<\	.	2r	2re	(>4ff/	.
4F\)	4a 4f 4e-/	pp	.	.	4a/)	.
=8	=8	=8	=8	=8	=8	=8
4.BB-/	4.b- 4.f 4.d/	.	4r	4re	4.b-/	.
.	.	.	8r	8re	.	.
8r	8r	.	(8dd\	(8ddd\	8ryy	p
*	*	*	*	*v	*v	*
=9	=9	=9	=9	=9	=9
!	!LO:TX:b:t=4	!	!	!	!
0r	0r	.	8cc#X/L)	8ccc#X\L)	.
.	.	.	(8g/	(8gg\	.
.	.	.	8b-/	8bb-\	.
.	.	.	16a/L	16aa\L	.
.	.	.	16g/JJ)	16gg\JJ)	.
=10	=10	=10	=10	=10	=10
.	.	.	(4e-/	(4ee-\	.
.	.	.	8d/L)	8dd\L)	.
.	.	.	(8g/J	(8gg\J	.
=11	=11	=11	=11	=11	=11
.	.	.	4f#X/)	4ff#X\)	.
.	.	.	(4enT/	(<4eenT\	.
.	.	.	16qqd/LL	16qqdd/LL	.
.	.	.	16qqe/JJ)	16qqee/JJ)	.
!	!	!	!LO:LB:g=original	!LO:LB:g=original	!
=12	=12	=12	=12	=12	=12
*	*	*	*xywh-#3:313,1229,2636,628	*xywh-#3:313,1229,2636,628	*xywh-#3:313,1229,2636,628
.	.	.	4.d/	4.dd\	.
.	.	.	(8dd\	(8ddd\	.
=13	=13	=13	=13	=13	=13
*	*^	*	*	*	*
*	*	*cue	*	*	*	*
!	!LO:TX:a:t=Primo.	!	!	!	!	!
2r	2re	(>8cc#X/L	.	8cc#X/L)	8ccc#X\L)	.
.	.	8g/J	.	(8g/	(8gg\	<
.	.	8b-/L	.	8b-/	8bb-\	.
.	.	16a/L	.	16a/L	16aa\L	.
.	.	16g/JJ)	.	16g/JJ)	16gg\JJ)	[
=14	=14	=14	=14	=14	=14	=14
2r	2re	(>8ee-/L	.	(8ee-\L	(8eee-\L	<
.	.	8bn/J)	.	8bn\)	8bbn\J)	.
.	.	(>8dd/L	.	(8dd\	(8ddd\L	.
.	.	16ccn/L	.	16ccn\L	16cccn\L	.
.	.	16b-X/JJ)	.	16b-X\JJ)	16bb-X\JJ)	.
=15	=15	=15	=15	=15	=15	=15
2r	4re	4ff/	.	(4ff\	(4fff\	>]
*	*	*Xcue	*	*	*	*
.	4f/	4ryy	pp	4cc\)	4aa 4ff 4ee-\)	pp
*	*v	*v	*	*	*	*
=16	=16	=16	=16	=16	=16
4r	4.B-/	.	4.b-\	4.bb- 4.ff 4.dd\	.
8r	.	.	.	.	.
8BB-/	8B-/	p	8r	8r	.
=17	=17	=17	=17	=17	=17
!	!	!LO:HP:t=cresc. poco a poco	!	!LO:TX:b:t=5	!
(8BBn\L	(8Bn/L	<	0r	0r	.
8C\	8c/	.	.	.	.
8D\	8d/	.	.	.	.
8A-X\J)	8a-X/J)	.	.	.	.
=18	=18	=18	=18	=18	=18
(8.G\L	(8.g/L	.	.	.	.
16F\K	16f/K	.	.	.	.
8E-\	8e-/	.	.	.	.
8D\J)	8d/J)	.	.	.	.
!LO:LB:g=original	!LO:LB:g=original	!	!	!	!
=19	=19	=19	=19	=19	=19
*xywh-#2:468,1841,2579,544	*xywh-#2:468,1841,2579,544	*	*	*	*
(8C\L	(8c/L	.	.	.	.
8D\	8d/	.	.	.	.
8E-\	8e-/	.	.	.	.
8B-\J)	8b-/J)	.	.	.	.
=20	=20	=20	=20	=20	=20
(8.A\L	(8.a/L	.	.	.	.
16G\K	16g/K	.	.	.	.
8F#X\)	8f#X/)	.	.	.	.
(8d\J	(8dd/J	f	.	.	.
=21	=21	=21	=21	=21	=21
8c#X\L)	8cc#X/L)	.	2r	2r	.
(8G\	(8g/	.	.	.	.
8B-\	8b-/	.	.	.	.
16A\L	16a/L	.	.	.	.
16G\JJ)	16g/JJ)	.	.	.	.
=22	=22	=22	=22	=22	=22
*	*	*	*	*^	*
!	!	!	!	!LO:TX:a:t=Sec.	!	!
(8g\L	(8gg\L	<	2r	2re	(>8gg/L	.
8d\J	8dd\J	.	.	.	8ee-/	.
16f\LL	16ff\LL	.	.	.	16ff/L	.
16e-\)	16ee-\)	.	.	.	16ee-/)	.
16d\	16dd\	.	.	.	16dd/	.
16cn\JJ	16ccn\JJ	[	.	.	16cc/JJ	.
=23	=23	=23	=23	=23	=23	=23
!	!	!LO:HP:t=dim.	!	!	!	!
4e-\	4ee-\	>	2r	2re	4ee-/	.
4D\	4f#X 4d 4c/	pp	.	.	4f#X/	.
=24	=24	=24	=24	=24	=24	=24
4.GG/	4.g 4.d 4.B-/	.	4r	4r	4.g\	.
.	.	.	8r	8r	.	.
8r	8r	.	8B-/	8b-\	8ryy	p
*	*	*	*	*v	*v	*
!	!	!	!LO:LB:g=original	!LO:LB:g=original	!
=25	=25	=25	=25	=25	=25
*	*	*	*xywh-#3:341,1857,2595,559	*xywh-#3:341,1857,2595,559	*
!	!LO:TX:b:t=3	!	!	!	!
1r	1r	.	(8Bn/L	(8bn\L	<
.	.	.	8c/	8cc\	.
.	.	.	8d/	8dd\	.
.	.	.	8a-X/J)	8aa-X\J)	.
=26	=26	=26	=26	=26	=26
.	.	.	(8.g/L	(8.gg\L	.
.	.	.	16f/K	16ff\K	.
.	.	.	8e-/	8ee-\	.
.	.	.	8d/J)	8dd\J)	.
=27	=27	=27	=27	=27	=27
2r	2r	.	(8c/L	(8cc\L	.
.	.	.	8d/	8dd\	.
.	.	.	8e-/	8ee-\	.
.	.	.	8b-/J)	8bb-\J)	.
=28	=28	=28	=28	=28	=28
2r	4r	.	(8.a/L	(8.aa\L	.
.	.	.	16g/K	16gg\K	.
.	8r	.	8f#X/)	8ff#X\)	.
*	*clefF4	*	*	*	*
.	(8d\	f	(8dd/J	(8ddd\J	f
!LO:LB:g=original	!LO:LB:g=original	!	!	!	!
=29	=29	=29	=29	=29	=29
*xywh-#2:364,2324,2710,655	*xywh-#2:364,2324,2710,655	*	*	*	*
2r	8c#X\L)	.	8cc#X/L)	8ccc#X\L)	.
.	(8G\	.	(8g/	(8gg\	.
.	8B-\	.	8b-/	8bb-\	.
.	16A\L	<	16a/L	16aa\L	<
.	16G\JJ)	.	16g/JJ)	16gg\JJ)	.
=30	=30	=30	=30	=30	=30
2r	(8g\L	.	(8gg\L	(8ggg\L	.
.	8d\J	.	8dd\J	8ddd\J	.
.	16f\LL	.	16ff\LL	16fff\LL	.
.	16e-\)	.	16ee-\)	16eee-\)	.
.	16d\	.	16dd\	16ddd\	.
.	16cn\JJ	[	16ccn\JJ	16cccn\JJ	[[
=31	=31	=31	=31	=31	=31
!	!	!LO:HP:t=dim.	!	!	!LO:HP:t=dim.
4r	(4e-\	>	(4ee-\	(4eee-\	>
4D\	4d 4c 4A\)	pp	4f#X/)	4ff#X\)	pp
=32	=32	=32	=32	=32	=32
4.GG/	4.d 4.B-\	.	4.g/	4.gg\	.
!	!	!	!LO:LB:g=original	!LO:LB:g=original	!
=||	=||	=||	=||	=||	=||
*	*	*	*xywh-#3:272,2374,2664,641	*xywh-#3:272,2374,2664,641	*
*>B	*>B	*>B	*>B	*>B	*>B
!	!LO:TX:a:B:t=Istesso tempo.	!	!	!LO:TX:a:B:t=Istesso tempo.	!
!	!LO:TX:a:B:t=VAR. I.	!	!	!LO:TX:a:B:t=VAR. I.	!
!	!LO:TX:b:i:t=un poco rilevando il tema	!	!	!	!
8r	(8d\	p	8r	8r	.
=33	=33	=33	=33	=33	=33
!	!	!	!	!LO:TX:b:t=1	!
2r	8c#X\L)	.	2r	2r	.
.	(8G\	.	.	.	.
.	8B-\	.	.	.	.
.	16A\L	.	.	.	.
.	16G\JJ)	.	.	.	.
=34	=34	=34	=34	=34	=34
*	*	*	*Xbrackettup	*	*
!	!	!	!LO:TUP:b	!	!
2r	4E-\	.	24r	4r	p
.	.	.	(24g/LL	.	.
.	.	.	24a/JJ	.	.
!	!	!	!LO:TUP:a	!	!
.	.	.	24b-\LL	.	.
.	.	.	24cc\	.	.
.	.	.	24cc#X\JJ)	.	.
*	*	*	*	*Xbrackettup	*
!	!	!	!	!LO:TUP:a	!
.	8D\L	.	[4dd\	24r	.
.	.	.	.	(24ddd\LL	.
.	.	.	.	24ccc\JJ	.
!	!	!	!	!LO:TUP:a	!
.	(8G\J	.	.	24bb-\LL	.
.	.	.	.	24aa\	.
.	.	.	.	24gg\JJ)	.
=35	=35	=35	=35	=35	=35
*	*	*	*Xtuplet	*	*
2r	8F#X\L	.	(24dd\LL]	[8aa\L	.
.	.	.	24a\	.	.
.	.	.	24ee-\J	.	.
*	*	*	*	*Xtuplet	*
.	8Fn\	.	[8dd\J)	24aa\L]	.
.	.	.	.	(24aa\	.
.	.	.	.	24bb-\JJ	.
.	8En\	.	24dd\LL]	[8gg\L	.
.	.	.	(24bn\	.	.
.	.	.	24dd\J	.	.
.	8E-X\J)	.	[8ccn\J	24gg\L])	.
.	.	.	.	(24gg\	.
.	.	.	.	24aa\JJ	.
!LO:LB:g=original	!LO:LB:g=original	!	!	!	!
=36	=36	=36	=36	=36	=36
*xywh-#2:420,2993,2662,765	*xywh-#2:420,2993,2662,765	*	*	*	*
*	*^	*	*	*	*
*	*	*xywh-#2:420,2993,2662,765	*	*	*	*
8r	4.D\	8ryy	.	24cc\LL])	[4ff#X\)	.
.	.	.	.	(24a\	.	.
!	!	!	!LO:DY:b=2	!	!	!
.	.	.	sf	24b-X\JJ	.	.
[8DD/L	.	8ryy	.	24cc\LL	.	.
.	.	.	.	24dd\	.	.
.	.	.	.	24ee-\JJ)	.	.
16DD/L]	.	16ryy	.	8dd\	24ff#\LL]	<
.	.	.	.	.	(24ff#\	.
!	!	!	!LO:HP:b=2	!	!	!
(16C'/	.	16ryy	<	.	.	.
.	.	.	.	.	24gg\JJ	.
16BB-'/	(8d\	8ryy	.	8r	24aa\LL	.
.	.	.	.	.	24bb-\	.
16AA'/JJ)	.	.	.	.	.	.
.	.	.	[	.	24ccc\JJ)	[[
*	*v	*v	*	*	*	*
!	!	!	!LO:LB:g=original	!LO:LB:g=original	!
=37	=37	=37	=37	=37	=37
*	*	*	*xywh-#3:299,3051,2691,648	*xywh-#3:299,3051,2691,648	*
[4GG/	8c#X\L)	.	(16en/KL	24bb-\LL	.
.	.	.	.	24r	<
.	.	.	8b-/	.	.
.	.	.	.	(24cc#X\JJ	.
.	(8G\	<	.	24een\LL	.
.	.	.	.	24gg\	.
.	.	.	16a/Jk	.	.
.	.	.	.	24bb-\JJ)	.
8GG/]	8B-\	.	24g/LL)	[4ddd\	.
.	.	.	24r	.	.
.	.	.	(24d/JJ	.	.
8r	16A\L	.	24g\LL	.	.
.	.	.	24b-\	.	.
.	16G\JJ)	.	.	.	.
.	.	.	24dd\JJ)	.	.
=38	=38	=38	=38	=38	=38
2r	(8e-\L	.	(8gg\L	24ddd\LL]	.
.	.	.	.	(24bbn\	.
.	.	.	.	24ccc\J	.
.	8Bn\J	.	24aa-X\L	[8ddd\J	.
.	.	.	24gg\	.	.
.	.	.	24ff#X\JJ)	.	.
.	8d\L	.	(8ffn\L	24ddd\LL])	.
.	.	.	.	(24ff#X\	.
.	.	.	.	24gg\JJ	.
.	16c\L	.	24ee-\L	24gg#X\LL	.
.	.	.	24cc\	24aa\	.
.	16B-X\JJ)	.	.	.	.
.	.	.	24cc#X\JJ)	24bb-X\JJ)	.
=39	=39	=39	=39	=39	=39
8r	(4f\	.	(24dd\LL	(8bb-\L	.
.	.	.	24ff\	.	.
.	.	.	24ee-\JJ	.	.
[8FF/L	.	.	24dd\LL	16ffn\Jk)	.
.	.	.	24ccn\	.	.
.	.	.	.	16r	.
.	.	.	24b-\JJ	.	.
16FF/L]	4A\)	.	16ee-\LL)	24r	.
.	.	.	.	(24ccc\LL	>
(16C/	.	.	(16f\	.	.
.	.	.	.	24bb-\JJ	.
16D/	.	.	16a\	24aa\LL	.
.	.	.	.	24gg\	.
[16E-/JJ	.	.	16cc\JJ)	.	.
.	.	.	.	24ff\JJ)	]]
=40	=40	=40	=40	=40	=40
24E-/LL])	(4A\	pp	(8ff\L	(4ccc\	pp
(24FF/	.	.	.	.	.
24EEn/JJ	.	.	.	.	.
24FF/LL	.	.	8ee-\J	.	.
24GG/	.	.	.	.	.
24FF/JJ	.	.	.	.	.
8BB-/)	8B-\)	.	8dd\)	8bb-\)	.
!LO:PB:g=original	!LO:PB:g=original	!	!LO:PB:g=original	!LO:PB:g=original	!
=:|!|:	=:|!|:	=:|!|:	=:|!|:	=:|!|:	=:|!|:
*xywh-#4:420,200,2632,709	*xywh-#4:420,200,2632,709	*	*xywh-#5:356,263,2660,670	*xywh-#5:356,263,2660,670	*
*>C	*>C	*>C	*>C	*>C	*>C
*	*clefG2	*	*	*	*
8r	8B-/	.	8r	8r	.
=41	=41	=41	=41	=41	=41
*Xtuplet	*	*	*	*	*
!	!LO:TX:b:i:t=espress.	!LO:DY:b=2	!	!LO:TX:b:t=1	!
(24A-X^\LL	(8Bn/L	sf	2r	2r	.
24G\)	.	.	.	.	.
!	!	!LO:DY:b=2:rj	!	!	!
24F'\JJ	.	p	.	.	.
24E-'\LL	8c/	.	.	.	.
24D'\	.	.	.	.	.
24C'\JJ	.	.	.	.	.
!LO:TUP:b:problem=klamra łukowa	!	!	!	!	!
(24BBn/LL	8d/	.	.	.	.
24AA-X/	.	.	.	.	.
24GG/JJ)	.	.	.	.	.
24FF'/LL	8a-X/J)	.	.	.	.
24EE-'/	.	.	.	.	.
24DD'/JJ	.	.	.	.	.
=42	=42	=42	=42	=42	=42
(24EE-/LL	(8.g/L	.	2r	24r	.
24GG/)	.	.	.	24gg'\LL	.
24FF'/JJ	.	.	.	24gg'\JJ	.
24EE-'/LL	.	.	.	24gg'\LL	.
24FF'/	.	.	.	24aa'\	.
.	16f/K	.	.	.	.
24DD'/JJ	.	.	.	24bbn'\JJ	.
!	!LO:N:vis=16	!	!	!	!
8CC'/	8e-/	<	.	24ccc'\LL	.
.	.	.	.	(24gg\	.
.	.	.	.	24ccc\JJ	.
!	!LO:N:vis=16	!	!	!	!
8r	8d/J)	.	.	24bb-X\LL	.
.	.	.	.	24aa\	.
.	.	.	.	24gg\JJ)	.
=43	=43	=43	=43	=43	=43
*	*	*	*	*tuplet	*
!	!	!LO:DY:b=2	!	!LO:TUP:a:problem=klamra łukowa	!
(24B-\LL	(8c/L	sf	2r	12ff\L	.
24An\)	.	.	.	.	.
24G'\JJ	.	.	.	24een\Jk	.
24F'\LL	8d/	.	.	8r	.
24En'\	.	.	.	.	.
24D'\JJ	.	.	.	.	.
(24C/LL	8en/	.	.	4r	.
24D/)	.	.	.	.	.
24BB-'/JJ	.	.	.	.	.
24AA'/LL	8b-/J)	.	.	.	.
24BB-'/	.	.	.	.	.
24GG'/JJ	.	.	.	.	.
!LO:LB:g=original	!LO:LB:g=original	!	!	!	!
=44	=44	=44	=44	=44	=44
*xywh-#4:447,868,2536,572	*xywh-#4:447,868,2536,572	*	*	*	*
*	*	*	*	*Xtuplet	*
!	!	!LO:HP:b=2	!	!	!
(24FF#X/LL	(8.a/L	<	4r	24r	.
24AA/)	.	.	.	24aa'\LL	.
24GG'/JJ	.	.	.	24aa'\JJ	.
!	!	!	!	!	!LO:HP:t=cresc. molto
24FF#'/LL	.	.	.	24aa'\LL	<
24GG'/	.	.	.	24bbn'\	.
.	16g/Jk	.	.	.	.
24EEn'/JJ	.	.	.	24ccc#X'\JJ	.
8DD/L	8f#X/L)	[	8r	24ddd'\LL	.
.	.	.	.	(24eee-X\	.
.	.	.	.	24ddd\JJ	.
!	!	!LO:DY:b=2	!	!	!
(8GGT/J	(8d/J	sf	(8a/	24ccc#\LL)	.
.	.	.	.	(24ddd\	.
.	.	.	.	24cccn\JJ)	.
16qqEE/LL	.	.	.	.	.
16qqFF#/JJ)	.	.	.	.	.
*	*clefF4	*	*	*	*
!	!	!	!LO:LB:g=original	!LO:LB:g=original	!
=45	=45	=45	=45	=45	=45
*	*	*	*xywh-#5:294,877,2673,614	*xywh-#5:294,877,2673,614	*
!	!	!LO:HP:t=cresc. molto	!	!	!
[2GG/	8c#X\L)	<	24b-/LL)	[4bb-\	.
.	.	.	24en'/	.	.
.	.	.	24g'/JJ	.	.
.	(8G\J	.	24b-'\LL	.	.
.	.	.	24gg'\	.	.
.	.	.	24een'\JJ	.	.
.	8B-\L	.	24cc#X'/LL	24bb-\LL]	.
.	.	.	24e'/	24cc#X'\	.
.	.	.	24g'/JJ	24een'\JJ	.
.	16A\L	.	24b-'\LL	24gg'\LL	.
.	.	.	24cc#'\	24bb-'\	.
.	16G\JJ)	.	.	.	.
.	.	.	24ee'\JJ	24ccc#X'\JJ	.
=46	=46	=46	=46	=46	=46
24GG/LL]	(8g\L	.	16ffn\LL	[8ddd\L	.
(24GG/	.	<	.	.	.
.	.	.	16dd\	.	.
24BBn/JJ	.	.	.	.	.
24D\LL	8d\J	.	16bn'\	24ddd\L]	.
24G\	.	.	.	24aa-X'\	.
.	.	.	16dd'\JJ	.	.
24Bn\JJ	.	.	.	24gg'\JJ	.
8c\)	16f\LL	.	24g'/LL	8gg\L	.
.	.	.	24a'/	.	.
.	16e-\)	[	.	.	.
.	.	.	24b'/JJ	.	.
8r	16d\	.	24cc'\LL	[8gg\J	.
.	.	.	24dd'\	.	.
.	16cn\JJ	.	.	.	.
.	.	.	24ee-'\JJ	.	.
=47	=47	=47	=47	=47	=47
(4C/	(4e-\	.	8.a-X/L	24gg\LL]	.
.	.	.	.	(24aa-X\	.
.	.	.	.	24bb-\JJ	.
.	.	.	.	24ccc\LL	.
.	.	.	.	24ddd\	.
.	.	.	16a-/Jk	.	.
.	.	.	.	24eee-\JJ)	.
[4D/)	4F#X\)	>	24an\LL	(24eee-\LL	>
.	.	.	24b-\	24ddd\)	.
.	.	.	24cc'\JJ	24ccc'\JJ	.
.	.	.	24ee-\LL	(24ccc\LL	.
.	.	.	24dd\	24bb-\)	.
.	.	]	24cc'\JJ	24aan'\JJ	]
=48	=48	=48	=48	=48	=48
24D/LL]	(4F#X\	pp	4cc\	(4aa\	pp
(24DD/	.	.	.	.	.
24CC#X/JJ	.	.	.	.	.
24DD/LL	.	.	.	.	.
24EE-/	.	.	.	.	.
24DD/JJ)	.	.	.	.	.
8GG/	8G\)	.	8b-\	8gg\)	.
!LO:LB:g=original	!LO:LB:g=original	!	!LO:LB:g=original	!LO:LB:g=original	!
=:|!|:	=:|!|:	=:|!|:	=:|!|:	=:|!|:	=:|!|:
*xywh-#4:357,1365,2653,675	*xywh-#4:357,1365,2653,675	*	*xywh-#5:336,1416,2604,649	*xywh-#5:336,1416,2604,649	*
*>D	*>D	*>D	*>D	*>D	*>D
!	!LO:TX:a:B:t=Un poco più mosso e leggiero.	!	!	!LO:TX:a:B:t=Un poco più mosso e leggiero.	!
!	!LO:TX:a:B:t=VAR. II.	!	!	!LO:TX:a:B:t=VAR. II.	!
!	!LO:TX:b:i:t=leggiero	!	!	!	!
8D\	8r	p	8r	8r	.
=49	=49	=49	=49	=49	=49
!	!	!	!	!LO:TX:b:t=1	!
(32C#X/LLL	4r	.	2r	2r	.
32GG/)	.	.	.	.	.
32AA'/	.	.	.	.	.
32Cn'/JJJ	.	.	.	.	.
16BB-'/LL	.	.	.	.	.
16GG'/JJ	.	.	.	.	.
(16FF#X/LL	8r	.	.	.	.
16AA/)	.	.	.	.	.
16BB-'/	8d\	.	.	.	.
16GG'/JJ	.	.	.	.	.
=50	=50	=50	=50	=50	=50
(8EEn/L	(32c#X\LLL	.	4r	2r	.
.	32G\)	.	.	.	.
.	32A'\	.	.	.	.
.	32cn'\JJJ	.	.	.	.
8EE-X/	16B-'\LL	.	.	.	.
.	16G'\JJ	.	.	.	.
8DD/	(16F#X\LL	.	8r	.	.
.	16A\)	.	.	.	.
8GG/J)	16G'\	.	8b-\	.	p
.	16D'\JJ	.	.	.	.
=51	=51	=51	=51	=51	=51
!	!	!	!LO:TX:a:i:t=leggiero	!	!
(8FF#X/L	(16A\LL	.	(32a/LLL	2r	.
.	.	.	32d/)	.	.
.	16D\)	.	32g#X'/	.	.
.	.	.	32a'/JJJ	.	.
8FFn/	16r	.	16a-X/LL	.	.
.	16D'\JJ	.	(16Bn/JJ	.	.
8EEnt/	16G'\LL	<	16c/LL)	.	.
.	(16En\	.	(16gn/	.	.
16qqDD#X/LL	.	.	.	.	.
16qqEE/JJ	.	.	.	.	.
8AA/J)	16C#X\)	.	16b-X/)	.	.
.	(16G\JJ	.	(16c#X/JJ	.	.
!LO:LB:g=original	!LO:LB:g=original	!	!	!	!
=52	=52	=52	=52	=52	=52
*xywh-#4:385,1992,2653,544	*xywh-#4:385,1992,2653,544	*	*	*	*
[4DDn/	16F#X\)	[	16d/LL)	16r	.
.	16r	.	(16b- 16g/	(16ee-\LL	.
.	8r	.	16a 16f#X/)	16dd\)	.
.	.	.	(16b-JJ 16g/	(16cc#X\JJ	.
8DD/]	4r	.	16a 16f#/)	16dd\LL)	.
.	.	.	16r	16dd'\J	.
8r	.	.	8r	8ddd^\J	.
=53	=53	=53	=53	=53	=53
!	!LO:TX:b:t=1	!	!	!	!
2r	2r	.	8r	(32ccc#X\LLL	.
.	.	.	.	32aa\)	.
.	.	.	.	32aa'\	.
.	.	.	.	32cccn'\JJJ	.
.	.	.	8dd^\	16bb-'\LL	.
.	.	.	.	16gg'\JJ	.
.	.	.	(32cc#X\LLL	(16een\LL	.
.	.	.	32a\)	.	.
.	.	.	32a'\	16ff#X\)	.
.	.	.	32ccn'\JJJ	.	.
.	.	.	16b-'/LL	16gg'\	.
.	.	.	16g'/JJ	16bb-'\JJ	.
!	!	!	!LO:LB:g=original	!LO:LB:g=original	!
=54	=54	=54	=54	=54	=54
*	*	*	*xywh-#5:377,2011,2521,545	*xywh-#5:377,2011,2521,545	*
4r	(32f#X\LLL	.	(16a\LL	(16aa\LL	.
.	32d\)	.	.	.	.
.	32d'\	.	16bn\)	16aa-X\J)	<
.	32fn'\JJJ	.	.	.	.
.	16e-X'\LL	.	16cc'\	([8gg\J	.
.	16c'\JJ	.	16ee-'\JJ	.	.
(32Bn\LLL	(16d\LL	.	(16dd\LL	16gg\LL]	.
32G\)	.	.	.	.	.
32G'\	16g\)	.	16dd-X\)	16een\)	.
32B-X'\JJJ	.	.	.	.	.
16A\LL	16c'\	.	16cc'\	16ffn'\	.
16G\JJ	16en'\JJ	.	16cc#X'\JJ	16bb-'\JJ	[
=55	=55	=55	=55	=55	=55
16F\	16f'\LL	.	16dd\	(32bb-\LLL	f
.	.	.	.	32dd\)	.
16r	16F'\JJ	.	16r	32dd'\	.
.	.	.	.	32ff'\JJJ	.
8r	8r	.	(32dd\LLL	[4ff\	.
.	.	.	32b-\)	.	.
.	.	.	32b-'\	.	.
.	.	.	32dd'\JJJ	.	.
8.r	16r	.	(32dd/LLL	.	.
.	.	.	32f/)	.	.
.	(16d\LL	>	32f'/	.	.
.	.	.	32b-'/JJJ	.	.
.	16F\)	.	16d'/LL	16ff\LL]	.
(16FF/	[16F\JJ	]	(16e-/JJ	(16a\JJ	.
=56	=56	=56	=56	=56	=56
4.BBB-/)	32F\LLL]	.	4.d/)	4.b-\)	.
.	(32En\	.	.	.	.
.	32F\	.	.	.	.
.	32G\JJJ	.	.	.	.
.	16F\LL)	.	.	.	.
.	(16c\JJ	.	.	.	.
.	8B-\)	.	.	.	.
!LO:LB:g=original	!LO:LB:g=original	!	!	!	!
=:|!|:	=:|!|:	=:|!|:	=:|!|:	=:|!|:	=:|!|:
*xywh-#4:399,2571,2660,489	*xywh-#4:399,2571,2660,489	*	*xywh-#5:336,2515,2618,601	*xywh-#5:336,2515,2618,601	*
*>E	*>E	*>E	*>E	*>E	*>E
8r	8r	.	8b-\	8r	.
!	!	!	!LO:LB:g=original	!LO:LB:g=original	!
=57	=57	=57	=57	=57	=57
!	!	!	!	!	!LO:DY:b=2
32r	16r	.	[4a-X/	2r	sf
(32BBn/LLL	.	.	.	.	.
*	*clefG2	*	*	*	*
32D/	(8f/L	>	.	.	.
32C/JJJ	.	.	.	.	.
16BB/LL)	.	.	.	.	.
16D'/JJ	16d/Jk)	.	.	.	.
16F'\LL	32r	]	8a-/]	.	.
.	(32Bn/LLL	.	.	.	.
(16A-X\	32d/	<	.	.	.
.	32c/JJJ	.	.	.	.
16G\)	16B/LL	.	8r	.	.
16F'\JJ	16a-X/JJ)	.	.	.	.
=58	=58	=58	=58	=58	=58
*	*	*	*	*^	*
*	*	*	*	*	*xywh-#5:336,2515,2618,601	*
16En'\LL	16g'/LL	.	32r	2r	8.ryy	.
!	!	!	!	!	!	!LO:HP:b=2
.	.	.	(32cc\LLL	.	.	<
(16F\	(16a-X/	.	32ee-\	.	.	.
.	.	.	32dd-X\JJJ	.	.	.
16E\)	16g/)	[	16cc\LL)	.	.	[
!	!	!	!	!	!	!LO:DY:b=2
(16D-X\JJ	(16bn/JJ	sf	[16ff\JJ	.	16ryy	sf
!	!	!	!	!	!	!LO:HP:b=2
8C/)	16cc/LL)	.	16ff\LL]	.	4ryy	>
.	16g'/	.	16een'\	.	.	.
8r	16en'/	.	16gg'\	.	.	.
.	16c'/JJ	.	16cc'\JJ	.	.	]
*	*	*	*	*v	*v	*
=59	=59	=59	=59	=59	=59
!	!	!	!	!	!LO:DY:b=2
32r	16r	.	[4b-\	2r	sf
(32C#X\LLL	.	.	.	.	.
32En\	(8g/L	>	.	.	.
32D\JJJ	.	.	.	.	.
16C#\LL)	.	.	.	.	.
16E'\JJ	16en/Jk)	.	.	.	.
16G'\LL	32r	]	8b-\]	.	.
.	(32c#X/LLL	<	.	.	.
(16B-\	32e/	.	.	.	.
.	32d/JJJ	.	.	.	.
16A\)	16c#/LL)	.	8r	.	.
16G'\JJ	16dd'/JJ	.	.	.	.
!LO:LB:g=original	!LO:LB:g=original	!	!	!	!
=60	=60	=60	=60	=60	=60
*xywh-#4:323,2964,2612,737	*xywh-#4:323,2964,2612,737	*	*	*	*
*	*	*	*	*^	*
16F#X'\LL	16a'\LL	.	32r	4r	8.ryy	.
!	!	!	!	!	!	!LO:HP:b=2
.	.	.	(32dd\LLL	.	.	<
(16G\	(16b-\	.	32ff\	.	.	.
.	.	.	32ee-\JJJ	.	.	.
16F#\)	16a\)	[	16dd\LL)	.	.	[
!	!	!	!	!	!	!LO:DY:b=2
(16E-X\JJ	(16cc#X\JJ	sf	[16gg\JJ	.	16ryy	sf
!	!	!	!	!	!	!LO:HP:b=2
8D\)	16dd/LL)	>	16gg\LL]	8r	4ryy	>
.	16a'/	.	(16ff#X\	.	.	.
8r	16f#X'/	.	16aa\JJ)	8ddd^\	.	]
.	16d'/JJ	]]	16r	.	.	.
*	*	*	*	*v	*v	*
!	!	!	!LO:LB:g=original	!LO:LB:g=original	!
=61	=61	=61	=61	=61	=61
*	*	*	*xywh-#7:349,234,2612,725	*xywh-#7:349,234,2612,725	*
!	!LO:TX:b:t=1	!	!	!	!
2r	2r	.	8r	(32ccc#X\LLL	p
.	.	.	.	32aa\)	.
.	.	.	.	32aa'\	.
.	.	.	.	32cccn'\JJJ	.
.	.	.	8dd^\	16bb-'\LL	.
.	.	.	.	16gg'\JJ	.
.	.	.	32cc#X\LLL	(16een\LL	.
.	.	.	32a\	.	.
.	.	.	32a'\	16ff#X\)	.
.	.	.	32ccn'\JJJ	.	.
.	.	.	16b-'/LL	16gg'\	.
.	.	.	16g'/JJ	16bb-'\JJ	.
*	*clefF4	*	*	*	*
=62	=62	=62	=62	=62	=62
8r	(32f#X\LLL	p	(16a\LL	(16ddd\LL	.
.	32d\)	.	.	.	.
.	32d'\	.	16bn\)	16ggg\J)	.
.	32fn'\JJJ	.	.	.	.
8C^>/	16e-'\LL	.	16cc'\	([8ggg\J	.
.	16c'\JJ	.	16ee-'\JJ	.	.
(32BBn/LLL	(16d\LL	.	(16dd\LL	16ggg\LL]	.
32GG/)	.	.	.	.	.
32GG'/	16g\)	.	16dd-X\)	16eeen\)	.
32BB-X'/JJJ	.	.	.	.	.
16AA-X'/LL	16c'\	.	16cc'\	16fff\	.
16D-X'/JJ	16e-'\JJ	.	16g'\JJ	16bb-\JJ	.
=63	=63	=63	=63	=63	=63
8C/	8e-\	f	8a/	(32eee-X\LLL	p
.	.	.	.	32aa-X\)	.
.	.	.	.	32aa-'\	.
.	.	.	.	32ccc'\JJJ	.
8r	8r	.	8r	(32ccc'\LLL	.
.	.	.	.	32ee-\)	.
.	.	.	.	32ee-'\	.
.	.	.	.	32aa-'\JJJ	.
8r	32r	.	8.r	(32aa-\LLL	>
.	32c\LLL	>	.	32cc\)	.
.	32c\	.	.	32cc'\	.
.	32e-\JJJ	.	.	32ee-'\JJJ	.
16r	16e-\LL	.	.	16ee-\	]
16D\	(16cJJ 16An\	] p	(16f#X/	16r	p
=64	=64	=64	=64	=64	=64
32r	4.d 4.B-\)	.	4.g/)	4r	.
(32FF#X/LLL	.	.	.	.	.
32GG/	.	.	.	.	.
32AA/JJJ	.	.	.	.	.
16GG/LL)	.	.	.	.	.
16D'/JJ	.	.	.	.	.
8G\	.	.	.	8r	.
!LO:PB:g=original	!LO:PB:g=original	!	!LO:PB:g=original	!LO:PB:g=original	!
=:|!|:	=:|!|:	=:|!|:	=:|!|:	=:|!|:	=:|!|:
*xywh-#6:428,277,2679,719	*xywh-#6:428,277,2679,719	*	*xywh-#7:239,856,2709,635	*xywh-#7:239,856,2709,635	*
*>F	*>F	*>F	*>F	*>F	*>F
!	!LO:TX:a:B:t=Quasi Allegretto scherzando.	!	!	!LO:TX:a:B:t=Quasi Allegretto scherzando.	!
!	!LO:TX:a:B:t=VAR. III.	!	!	!LO:TX:a:B:t=VAR. III.	!
!	!LO:TUP:a	!	!	!	!
8r	24D'\LL	pp	8r	8r	.
.	24d'\	.	.	.	.
.	24D'\JJ	.	.	.	.
=65	=65	=65	=65-	=65-	=65
*	*	*	*tuplet	*tuplet	*
!	!LO:TUP:a	!	!	!	!
2r	24d'\LL	.	24r	24r	pp
.	24D'\	.	24bb-'\LL	24ddd'\LL	.
.	24d'\JJ	.	24een'\JJ	24gg'\JJ	.
!	!LO:TUP:a	!	!	!	!
.	24D'\LL	.	8aa'\	8ccc#X'\	.
.	24d'\	.	.	.	.
.	24D'\JJ	.	.	.	.
!	!LO:TUP:a	!	!	!	!
.	24d'\LL	.	24r	24r	.
.	24D'\	.	24aa'\LL	24cccn'\LL	.
.	24d'\JJ	.	24cc'\JJ	24ff#X'\JJ	.
!	!LO:TUP:a	!	!	!	!
.	24D'\LL	.	24b-'\LL	24gg'\LL	.
.	24d'\	.	24dd'\	24bb-'\	.
.	24D'\JJ	.	24cc'\JJ	24aa'\JJ	.
=66	=66	=66	=66	=66	=66
*	*Xtuplet	*	*	*	*
2r	24d'\LL	.	8b-'/L	8gg'\L	.
.	24D'\	.	.	.	.
.	24d'\JJ	.	.	.	.
.	24D'\LL	.	8g'/	8ee-X'\	.
.	24d'\	.	.	.	.
.	24D'\JJ	.	.	.	.
.	24d'\LL	.	8f#X'/J	8dd'\J	.
.	24e-'\	.	.	.	.
.	24e-'\JJ	.	.	.	.
.	24e-'\LL	.	8r	8r	.
.	24d'\	.	.	.	.
.	24c'\JJ	.	.	.	.
=67	=67	=67	=67	=67	=67
4r	24B-'\LL	.	4r	8r	.
.	24d'\	.	.	.	.
.	24c'\JJ	.	.	.	.
.	24B-'\LL	.	.	8ggL 8dd'\	.
.	24d'\	.	.	.	.
.	24B-'\JJ	.	.	.	.
8r	24G'\LL	.	8r	8bb- 8gg'\	.
.	24B-'\	.	.	.	.
.	24A'\JJ	.	.	.	.
8AA/	24G'\LL	.	8en/	8cc#X'\J	.
.	24A'\	.	.	.	.
.	24G'\JJ	.	.	.	.
=68	=68	=68	=68	=68	=68
8DD'/L	24F#X'\LL	.	8f#X'/L	8dd'\	.
.	24A'\	.	.	.	.
.	24d'\J	.	.	.	.
*	*	*	*Xtuplet	*	*
8D'/	8c#X'\J	.	24b-'/L	8r	.
.	.	.	24a'/	.	.
.	.	.	24g'/JJ	.	.
*	*	*	*	*Xtuplet	*
8DD'/J	8d'\	.	24f#'/LL	24r	.
.	.	.	24a'/	24ddd'\LL	.
.	.	.	24f#'/J	24dd'\JJ	.
8r	8r	.	8d'/J	24ddd'\LL	.
.	.	.	.	24dd'\	.
.	.	.	.	24ddd'\JJ	.
!LO:LB:g=original	!LO:LB:g=original	!	!LO:LB:g=original	!LO:LB:g=original	!
=69	=69	=69	=69	=69	=69
*xywh-#6:359,921,2699,602	*xywh-#6:359,921,2699,602	*	*xywh-#7:335,1478,2639,504	*xywh-#7:335,1478,2639,504	*
24r	24r	.	2r	24dd'\LL	.
24B-'\LL	24d'\LL	.	.	24ddd'\	.
24En'\JJ	24G'\JJ	.	.	24dd'\JJ	.
8A'\	8c#X'\	.	.	24ddd'\LL	.
.	.	.	.	24dd'\	.
.	.	.	.	24ddd'\JJ	.
24r	24r	.	.	24dd'\LL	.
24A'\LL	24cn'\LL	.	.	24ddd'\	.
24D'\JJ	24F#X'\JJ	.	.	24dd'\JJ	.
24G'\	24B-'\LL	.	.	24ddd'\LL	.
24r	24d 24B-'\	.	.	24dd'\	.
24r	24gJJ 24d'\	.	.	24ddd'\JJ	.
*	*clefG2	*	*	*	*
=70	=70	=70	=70	=70	=70
2r	(8b-L 8g/	.	4r	24ddd'\LL	.
.	.	.	.	24ggg'\	.
.	.	.	.	24gg'\JJ	.
.	8bn 8f/	<	.	24ggg'\LL	<
.	.	.	.	24gg'\	.
.	.	.	.	24ggg'\JJ	.
.	8cc 8e-/	.	8r	24gg'\LL	.
.	.	.	.	24ggg'\	.
.	.	.	.	24gg'\JJ	.
.	8cc#XJ 8en/)	[[	24r	24ggg'\LL	.
.	.	.	24r	24gg'\	.
.	.	.	24bb-'\	24ggg'\JJ	[
=71	=71	=71	=71	=71	=71
8r	24ddLL 24f'/	.	24bb-'\LL	24fff'\LL	f
.	24bn'/	.	24aa-X'\	24ddd'\	.
.	24cc'/JJ	.	24gg'\JJ	24eee-'\JJ	.
!	!	!LO:DY:b=2:rj	!	!	!
4.FF/	24a'/LL	sf	24gg-X'\LL	24ccc'\LL	.
.	24b-X'/	.	24ff'\	24ddd'\	.
.	24g'/JJ	.	24een'\JJ	24bb-'\JJ	.
.	24a'\LL	>	24ee-X'\LL	24ccc'\LL	>
.	24cc'\	.	24ee-'\	24aan'\	.
.	24b-'\JJ	.	24dd'\JJ	24gg'\JJ	.
.	24a'/LL	.	24cc'\LL	24ff'\LL	.
.	24g'/	.	24b-'\	24ee-'\	.
.	24e-X'/JJ	]]	24an'\JJ	24cc'\JJ	]]
=72	=72	=72	=72	=72	=72
8BB-/	24d'/	p	24r	8b-\	p
*	*clefF4	*	*	*	*
.	24G'\LL	.	24g'/LL	.	.
.	24F'\JJ	.	24f'/JJ	.	.
8r	24E-'\LL	.	24e-'/LL	8r	.
.	24D'\	.	24d'/	.	.
.	24C'\JJ	.	24c'/JJ	.	.
8r	8BB-/	.	8B-'/	8r	.
!	!	!	!LO:LB:g=original	!LO:LB:g=original	!
=:|!|:	=:|!|:	=:|!|:	=:|!|:	=:|!|:	=:|!|:
*	*	*	*xywh-#7:328,1997,2626,532	*xywh-#7:328,1997,2626,532	*
*>G	*>G	*>G	*>G	*>G	*>G
8r	8r	.	8r	24bb-'\LL	.
.	.	.	.	24b-'\	.
.	.	.	.	24bb-'\JJ	.
!LO:LB:g=original	!LO:LB:g=original	!	!	!	!
=73	=73	=73	=73	=73	=73
*xywh-#6:442,1454,2623,553	*xywh-#6:442,1454,2623,553	*	*	*	*
24r	24r	.	2r	24b-'\LL	.
24D'/LL	24F'\LL	p	.	24bb-'\	.
24C'/JJ	24E-'\JJ	.	.	24b-'\JJ	.
24BB-'\LL	24D'\LL	.	.	24bb-'\LL	.
24F'\	24A-X'\	.	.	24b-'\	.
24E-'\JJ	24G'\JJ	.	.	24bb-'\JJ	.
24D'\LL	24F'\LL	<	.	24b-'\LL	<
24A-X'\	24f'\	.	.	24bb-'\	.
24G'\JJ	24e-'\JJ	.	.	24b-'\JJ	.
24F'\LL	24d'\LL	.	.	24bb-'\LL	.
24G'\	24e-'\	.	.	24b-'\	.
24A-'\JJ	24f'\JJ	.	.	24bb-'\JJ	.
=74	=74	=74	=74	=74	=74
8G'\L	8B-'\L	.	8r	24ee-'\LL	.
.	.	.	.	24gg'\	.
.	.	.	.	24bb-'\JJ	.
8F'\J	8A-X'\J	.	8dd-X'\	24ddd-X'\LL	.
.	.	[	.	24ff'\	.
.	.	.	.	24aa-X'\JJ	[
8En'\	8G'\	.	24cc'/LL	8ccc'\	>
.	.	.	24g'/	.	.
.	.	.	24en'/JJ	.	.
8r	8r	.	24c'/LL	8r	.
.	.	.	24e'/	.	.
.	.	.	24g'/JJ	.	]]
=75	=75	=75	=75	=75	=75
24r	24r	.	8cc'\	24r	.
24En'\LL	24G'\LL	.	.	24ccc'\LL	.
24D'\JJ	24F'\JJ	.	.	24cc'\JJ	.
24C'\LL	24En'\LL	.	8r	24ccc'\LL	.
24G'\	24B-'\	.	.	24cc'\	.
24F'\JJ	24An'\JJ	.	.	24ccc'\JJ	.
24E'\LL	24G'\LL	<	4r	24cc'\LL	<
24B-'\	24g'\	.	.	24ccc'\	.
24A'\JJ	24f'\JJ	.	.	24cc'\JJ	.
24G'\LL	24en'\LL	.	.	24ccc'\LL	.
24A'\	24f'\	.	.	24cc'\	.
24B-'\JJ	24g'\JJ	.	.	24ccc'\JJ	.
=76	=76	=76	=76	=76	=76
8A'\L	8c'\L	.	8r	24ff'\LL	.
.	.	.	.	24aan'\	.
.	.	.	.	24ccc'\JJ	.
8G'\J	8B-'\J	.	8ee-'\	24eee-'\LL	.
.	.	.	.	24gg'\	.
.	.	.	.	24bb-'\JJ	[
8F#X'\	8A'\	[	24dd'/LL	8ddd'\	.
.	.	.	24a'/	.	.
.	.	.	24f#X'/JJ	.	.
24DD'/LL	8r	ff >	8d'/	8r	.
24DD'/	.	.	.	.	.
24DD'/JJ	.	]]	.	.	.
!LO:LB:g=original	!LO:LB:g=original	!	!LO:LB:g=original	!LO:LB:g=original	!
=77	=77	=77	=77	=77	=77
*xywh-#6:366,1966,2713,546	*xywh-#6:366,1966,2713,546	*	*xywh-#7:252,2487,2695,615	*xywh-#7:252,2487,2695,615	*
24DD'/LL	8r	.	24r	24r	.
24CC#X'/	.	.	24bb-'\LL	24ddd'\LL	pp
24DD'/JJ	.	.	24een'\JJ	24gg'\JJ	.
24EE-'/LL	24r	.	8aa'\	8ccc#X'\	.
*	*clefG2	*	*	*	*
24EEn'/	24dd'/LL	.	.	.	.
24FF'/JJ	24d'/JJ	.	.	.	.
24FF#X'/LL	8dd'\	<	24r	24r	.
24GG'/	.	.	24aa'\LL	24cccn'\LL	.
24AA'/JJ	.	.	24dd'\JJ	24ff#X'\JJ	.
24BB-'/LL	24r	.	8gg'\	8bb-'\	<
24Cn'/	24dd'/LL	.	.	.	.
24C#X'/JJ	24d'/JJ	[[	.	.	.
=78	=78	=78	=78	=78	=78
24D'/LL	8dd'\	.	24r	24r	.
24DD'/	.	.	24ffn'\LL	24aa-X'\LL	.
24DD'/JJ	.	.	24bn'\JJ	24dd'\JJ	.
24DD'/LL	24r	<	8ee-X'\	8gg'\	.
24DD'/	24g'/LL	.	.	.	.
24DD'/JJ	24G'/JJ	.	.	.	.
24DD'/LL	8g'/	.	24r	24r	.
24EE-'/	.	.	24b'/LL	24gg'\LL	.
24DD'/JJ	.	.	24g'/JJ	24bn'\JJ	.
24DD-X'/LL	24r	.	8b-X'\	8gg'\	.
24CC'/	24B-'/LL	.	.	.	.
24DD-'/JJ	24e-'/JJ	.	.	.	.
=79	=79	=79	=79	=79	=79
8CC'/L	24r	sf	24r	24r	.
.	24g'/LL	.	24ff'\LL	24bbn'\LL	f
.	24a-X'/JJ	.	24ee-'\JJ	24ccc'\JJ	.
!	!	!LO:DY:b=2	!	!	!
(8EE-/J	24an'/LL	f	24cc'\LL	24ff#X'\LL	.
.	24b-'/	.	24cc#X'\JJ	24gg'\	.
.	24g'/JJ	.	24r	24cc#X'\JJ	.
*	*clefF4	*	*	*	*
4DDn/)	24G'\LL	>	24b-X'/LL	24ee-'\LL	>
.	24B-'\	.	24g'/	24dd'\	.
.	24en'\JJ	.	24g'/JJ	24cc#'\JJ	.
.	24e-X'\LL	.	24f#X'/LL	24ccn'\LL	.
.	24d'\	.	24f#'/	24b-'\	.
.	24c'\JJ	]]	24f#'/JJ	24an'\JJ	]]
=80	=80	=80	=80	=80	=80
24GG'/LL	24B-'\LL	pp	8g'/	4r	pp
24E-'/	24e-'\	.	.	.	.
24D'/JJ	24d'\JJ	.	.	.	.
24C'/LL	24c'\LL	.	8r	.	.
24BB-'/	24B-'\	.	.	.	.
24AA'/JJ	24A'\JJ	.	.	.	.
8GG'/	8G'\	.	8r	8r	.
!	!	!	!LO:LB:g=original	!LO:LB:g=original	!
=:|!	=:|!	=:|!	=:|!	=:|!	=:|!
*xywh-#6:428,2464,2623,664	*xywh-#6:428,2464,2623,664	*	*xywh-#7:252,2487,2695,615	*xywh-#7:252,2487,2695,615	*
*>H	*>H	*>H	*>H	*>H	*>H
*	*clefG2	*	*	*	*
*k[b-e-a-]	*k[b-e-a-]	*	*k[b-e-a-]	*k[b-e-a-]	*
*	*^	*	*	*	*
*	*	*xywh-#6:428,2464,2623,664	*	*	*	*
!	!LO:TX:a:i:t=molto cantabile	!	!	!	!	!
!	!LO:TX:a:B:t=Grave.	!	!	!	!LO:TX:a:B:t=Grave.	!
!	!LO:TX:a:B:t=VAR. IV.	!	!	!	!LO:TX:a:B:t=VAR. IV.	!
8E-\	(8g/	[8B-\	.	8r	8r	.
=81	=81	=81	=81	=81	=81	=81
!	!	!	!	!	!LO:TX:b:t=6	!
[4F\	8f/L	8.B-\L]	.	0r	0r	.
.	8c/J	.	.	.	.	.
.	.	16An\Jk	.	.	.	.
16F\LL]	16e-/LL)	4A-X\	.	.	.	.
(16F\	(16d/	.	.	.	.	.
16E-\	16c/	.	.	.	.	.
16D\JJ	16B-/JJ)	.	.	.	.	.
*	*v	*v	*	*	*	*
=82	=82	=82	=82	=82	=82
8E-\L)	(8B-L 8G/	.	.	.	.
(8G\	8e- 8B-/	.	.	.	.
8B-\	8g 8e-/	<	.	.	.
8A-\J)	8ccJ 8e-/)	.	.	.	.
=83	=83	=83	=83	=83	=83
*	*^	*	*	*	*
(8G\L	(8b-/L	4e-\	.	.	.	.
8E-\	8g/	.	.	.	.	.
8A-\	8f/	8c\L	.	.	.	.
8An\J)	8e-/J)	8cc\J	[	.	.	.
=84	=84	=84	=84	=84	=84	=84
(8B-\L	(4e-/	4f\	>	.	.	.
8F\	.	.	.	.	.	.
8B-\)	8d/)	8ryy	.	.	.	.
8En\J	8b-/	8g\	]	.	.	.
=85	=85	=85	=85	=85	=85	=85
(4.F\	(4an/	8f\L	p	1r	1r	.
!	!	!	!LO:HP:t=cresc. un poco	!	!	!
.	.	8c\J	<	.	.	.
.	8a-X/L	16e-\LL	.	.	.	.
.	.	16d\	.	.	.	.
8A-\)	8f/J)	16c\	.	.	.	.
.	.	16B-\JJ	.	.	.	.
=86	=86	=86	=86	=86	=86	=86
(8G\L	(4.b-/	8e-\L	.	.	.	.
8F\	.	8d\	.	.	.	.
8E-\	.	8c\	.	.	.	.
8En\J)	16an/LL	8c#X\J	.	.	.	.
.	16g/JJ)	.	.	.	.	.
=87	=87	=87	=87	=87	=87	=87
*	*	*	*	*	*^	*
!	!	!LO:TX:t=P:problem=mixed beam	!	!	!	!	!
4.F\	(8.f/L	(8d\L	.	2r	2rff	(8.f\L	.
.	.	8B-\	.	.	.	.	.
.	64g/LLL	.	.	.	.	64g\LLL	.
.	64f/	.	.	.	.	64f\	.
.	64en/	.	.	.	.	64en\	.
.	64f/JJJJ)	.	.	.	.	64f\JJJJ	.
.	(8.g/L	8An\	.	.	.	8.g\L	.
8FF\	.	8E-X</J)	.	.	.	.	.
.	16A/Jk)	.	.	.	.	16An\Jk)	.
*	*v	*v	*	*	*	*	*
=88	=88	=88	=88	=88	=88	=88
*^	*	*	*	*	*	*
!	!	!	!LO:HP:t=dimin.	!	!	!	!
(4E-/	(8GG-X\L	(4An/	>	4r	4r	(4An\	.
.	8FF\	.	.	.	.	.	.
8D/)	8BB-\J)	8B-/)	.	8r	8r	8B-\)	.
8E-\	8ryy	8e-/	pp	([8b-/	8gg\	8ryy	pp
*v	*v	*	*	*	*v	*v	*
=89	=89	=89	=89	=89	=89
!	!	!	!	!LO:TX:b:i:t=molto cantabile	!
(4F\	(8c/	.	8b-/L]	(8ff\L	.
.	4f/	.	8an/	8cc\J	.
8BB-/L	.	.	8a-X/	16ee-\LL	.
.	.	.	.	16dd\	.
8AA-X/J)	16c/LL	.	8f/J)	16cc\	.
.	16d/JJ)	.	.	16b-\JJ)	.
!LO:LB:g=original	!LO:LB:g=original	!	!	!	!
=90	=90	=90	=90	=90	=90
*xywh-#6:366,3039,2769,678	*xywh-#6:366,3039,2769,678	*	*	*	*
(4GG/	(8e-/	.	8b-\	(8b-\L	.
.	4e-/	.	(4b-\	8ee-\	<
8EE-/L	.	.	.	8gg\	.
8AA-/J)	8e-/)	.	8a-/)	8ccc\J)	.
=91	=91	=91	=91	=91	=91
(8GG/L	4e-/	.	4b-\	(8bb-\L	.
8EE-/)	.	.	.	8gg\)	.
(8AA-'/	(8c'/L	.	(8a-'/L	(8ff'\	.
8AAn'/J)	8c'/J)	.	8g-X'/J)	8ee-'\J)	[
!	!	!	!LO:LB:g=original	!LO:LB:g=original	!
=92	=92	=92	=92	=92	=92
*	*	*	*xywh-#7:370,3061,2639,663	*xywh-#7:370,3061,2639,663	*
4.BB-/	(8B-/L	.	(8f/L	(4ee-\	>
.	8An/)	.	8g-X/	.	.
.	8B-/	.	8f/)	8dd\L)	]
8En\	8d-X/J	.	8b-/J	8gg\J	.
=93	=93	=93	=93	=93	=93
(4F\	(8c/	<	(8b-/L	(8ff\L	<
.	4f/	.	8an/	8cc\J	.
8B-\L	.	.	8a-X/	16ee-\LL	.
.	.	.	.	16dd\	.
8A-X\J)	8dn/)	.	8f/J)	16cc\	.
.	.	.	.	16b-\JJ)	.
=94	=94	=94	=94	=94	=94
(8G\L	(8e-/L	.	(8b-/L	(4.bb-\	.
8F\	8d/J	.	8a-/J	.	.
8E-\	16e-/LL)	.	16g/LL)	.	.
.	(16B-/	.	(16g/	.	.
8En\J)	16c/	.	16an'/	16aan\LL	.
.	16c#X/JJ)	.	16b-/JJ)	16gg\JJ)	.
=95	=95	=95	=95	=95	=95
4.F\	(8d/L	.	(4b-/	(8.ff\L	.
.	8d-X/	.	.	.	.
.	.	.	.	64gg\LLL	.
.	.	.	.	64ff\	.
.	.	.	.	64een\	.
.	.	.	.	64ff\JJJJ	.
.	8c/J)	>	16an/LL	8.gg\L	>
.	.	.	16g/	.	.
*	*clefF4	*	*	*	*
8r	8F\	]]	16f/	.	.
.	.	.	16e-/JJ)	16an\Jk)	]]
=96	=96	=96	=96	=96	=96
2r	8B-\L	.	[4f 4e-/	(4an/	.
.	8F\	.	.	.	.
.	8BB-\J	.	8f] 8d/	8b-\)	.
!	!LO:TX:b:i:t=espress.	!	!	!	!
.	(16B-\LL	.	8r	8r	.
.	16A-X\JJ)	.	.	.	.
=97	=97	=97	=97	=97	=97
!	!	!	!	!LO:TX:b:t=3	!
2r	(8G\L	.	1r	1r	.
.	8A-\	.	.	.	.
.	8B-\	.	.	.	.
.	8d-X\J)	.	.	.	.
=98	=98	=98	=98	=98	=98
8r	(8.c\L	.	.	.	.
(8G-XL 8E-\	.	.	.	.	.
.	16B-\Jk	>	.	.	.
8FJ 8E-\)	8An\L)	]	.	.	.
8r	(16A\L	.	.	.	.
.	16B-\JJ)	.	.	.	.
*	*clefG2	*	*	*	*
=99	=99	=99	=99	=99	=99
2r	(8c/L	.	2r	2r	.
.	8d-X/	.	.	.	.
.	8e-/	.	.	.	.
.	8g-X/J)	.	.	.	.
!LO:PB:g=original	!LO:PB:g=original	!	!LO:PB:g=original	!LO:PB:g=original	!
=100	=100	=100	=100	=100	=100
*xywh-#8:434,283,2699,662	*xywh-#8:434,283,2699,662	*	*xywh-#9:342,289,2593,641	*xywh-#9:342,289,2593,641	*
*	*^	*	*	*	*
*	*	*xywh-#8:434,283,2699,662	*	*	*	*
!	!	!	!	!	!LO:TX:b:t=3	!
8r	(>8.f/L	4.ryy	<	1r	1r	.
(8cL 8A-X\	.	.	.	.	.	.
.	16e-/Jk	.	.	.	.	.
8B-J 8A-\)	8d/L)	.	.	.	.	.
(16B-\LL	8f/J	8d\	.	.	.	.
16A-\JJ)	.	.	.	.	.	.
=101	=101	=101	=101	=101	=101	=101
(8G\L	(8b-/L	4.d-X\	.	.	.	.
8A-\J	8f/J)	.	.	.	.	.
16B-\LL)	(16a-/LL	.	.	.	.	.
(<16E-\	16g/)	.	.	.	.	.
16F\	16f/	8d-X</	.	.	.	.
16G\JJ)	16e-/JJ	.	.	.	.	.
=102	=102	=102	=102	=102	=102	=102
(4.A-\	(4.ee-\	(8d-X</L	.	2r	2r	.
.	.	16c</L	.	.	.	.
.	.	16B-</JJ	.	.	.	.
!	!	!LO:TX:t=P:problem=mixed beam	!	!	!	!
.	.	16c</LL)	.	.	.	.
.	.	16e-\	.	.	.	.
8An\)	16ddn/LL	16f\	.	.	.	.
.	16cc/JJ)	16f#X\JJ	.	.	.	.
=103	=103	=103	=103	=103	=103	=103
*	*	*	*	*	*^	*
*	*	*	*	*	*	*xywh-#9:342,289,2593,641	*
4.B-\	(8.b-/L	8g\L	>	2r	2re	(>8.b-/L	.
.	.	8e-\	.	.	.	.	.
.	64cc/LLL	.	.	.	.	64cc/LLL	.
.	64b-/	.	.	.	.	64b-/	.
.	64an/	.	.	.	.	64an/	.
.	64b-/JJJJ	.	.	.	.	64b-/JJJJ	.
.	8.cc/L	8d\J	.	.	.	8.cc/L	.
8BB-\	.	8A-X</	.	.	.	.	.
.	16d/Jk)	.	.	.	.	16d/Jk)	.
=104	=104	=104	=104	=104	=104	=104	=104
(8C-X/L	(4d/	4A-\	>	2r	4r	(4d\	.
8BB-/	.	.	.	.	.	.	.
8E-/J)	8e-/)	8G\	]	.	8r	8e-\)	.
*	*	*	*	*	*	*Xcue	*
8r	8r	8ryy	.	.	16b-/LL	8ryy	p
.	.	.	.	.	16a-X/JJ	.	.
*	*v	*v	*	*	*v	*v	*
=105	=105	=105	=105	=105	=105
!	!LO:TX:b:t=1	!	!	!	!
2r	2r	.	2r	(8g\L	<
.	.	.	.	8a-\	.
.	.	.	.	8b-\	.
.	.	.	.	8dd-X\J)	[
*	*clefF4	*	*	*	*
!LO:LB:g=original	!LO:LB:g=original	!	!	!	!
=106	=106	=106	=106	=106	=106
*xywh-#8:448,966,2623,497	*xywh-#8:448,966,2623,497	*	*	*	*
!	!	!	!	!LO:TX:b:i:t=espress.	!
8r	8r	.	8r	(8.cc\L	.
(8G-X\L	(16An\LL	>	4e-/	.	>
.	16B-\J	.	.	16b-\Jk	]
8F\J)	8c\J)	]	.	8an/L)	.
8r	8r	.	8r	(16a/L	.
.	.	.	.	16b-/JJ)	.
=107	=107	=107	=107	=107	=107
!	!LO:TX:b:t=1	!	!	!	!LO:HP:t=cresc. sempre
2r	2r	.	2r	(8cc\L	<
.	.	.	.	8dd-X\	.
.	.	.	.	8ee-\	.
.	.	.	.	8gg-X\J)	.
=108	=108	=108	=108	=108	=108
8r	8r	.	8r	(8.ff\L	.
*	*clefG2	*	*	*	*
(8c-X\L	(16d/LL	<	4a-X/	.	>
.	16e-/J	.	.	16ee-\Jk	.
8B-\)	8f/	.	.	8ddn\L)	.
8A-X\J	8d/J)	.	8cc-X\	8ff\J	]
=109	=109	=109	=109	=109	=109
(4G\	(8e-/L	.	(4.b-\	(8bb-\L	.
.	8d/	.	.	8ff\J)	.
8E-\L	8d-X/	.	.	(16aa-\LL	.
.	.	.	.	16gg\)	.
8D-X\J)	8B-/J)	.	8g/)	16ff\	.
.	.	.	.	16ee-\JJ	.
=110	=110	=110	=110	=110	=110
(8C/L	(8A-/L	.	(8a-/L	(4.eee-\	.
8BB-/	8d-X/J	.	8g/J	.	.
8AA-/	16c/LL)	.	16a-\LL)	.	.
.	(16d-/	.	(16cc\	.	.
8AAn/J)	16f/	.	16dd\	16ddd\LL	.
.	16f#X/JJ)	.	16ee-\JJ)	16ccc\JJ)	.
!	!	!	!LO:LB:g=original	!LO:LB:g=original	!
=111	=111	=111	=111	=111	=111
*	*	*	*xywh-#9:280,882,2683,634	*xywh-#9:280,882,2683,634	*xywh-#9:280,882,2683,634
*	*	*	*^	*	*
4.BB-/	(8g/L	.	(4ee-\	4.ryy	(8.bb-\L	.
.	8g-X/	.	.	.	.	.
.	.	.	.	.	64ccc\LLL	.
.	.	.	.	.	64bb-\	.
.	.	.	.	.	64aan\	.
.	.	.	.	.	64bb-\JJJJ	.
!	!	!LO:HP:t=dimin.	!	!	!	!LO:HP:t=dimin.
.	8f/J)	>	16dd\LL	.	8.ccc\L	>
.	.	.	16cc\	.	.	.
8BB-/	8r	.	16b-\	8b-/	.	.
.	.	.	16a-X\JJ)	.	16dd\Jk)	.
*	*	*	*v	*v	*	*
=112	=112	=112	=112	=112	=112
8E-/L	4r	>	[4b- (4a-/	(4dd\	>
8BB-/	.	.	.	.	.
*kcancel	*kcancel	*	*kcancel	*kcancel	*
8EE-/J	8r	]	8b-] 8g/)	8ee-\)	]
*	*clefF4	*	*	*	*
!LO:LB:g=original	!LO:LB:g=original	!	!	!	!
=||	=||	=||	=||	=||	=||
*xywh-#8:324,1415,2734,648	*xywh-#8:324,1415,2734,648	*	*	*	*
*>I	*>I	*>I	*>I	*>I	*>I
*k[b-e-]	*k[b-e-]	*	*k[b-e-]	*k[b-e-]	*
*	*	*	*	*8va	*
!	!LO:TX:a:B:t=Con moto.	!	!	!LO:TX:a:B:t=Con moto.	!
!	!LO:TX:a:B:t=VAR. V.	!	!	!LO:TX:a:B:t=VAR. V.	!
8r	8r	.	8r	[8ddd\	f
=113	=113	=113	=113	=113	=113
!	!	!	!	!	!LO:DY:b=2
16GG'/LL	8d 8B- 8G\	f	8g/	32ddd/LLL]	sf
.	.	.	.	(32dd/	.
16GGG'/JJ	.	.	.	32gg/	.
.	.	.	.	32bb-/JJJ	.
16r	16r	.	16r	32ddd\LLL	.
.	.	.	.	32ccc#X\J)	.
16G'\	16c#X'\	.	16b-'\	([16bbb-\JJ	>
16F#X'\LL	16d'\	>	16a'/	32bbb-\LLL]	.
.	.	.	.	32aaa\)	.
16D'\	16r	.	16r	(32ddd\	]
.	.	.	.	32cccn\JJJ	.
16G'\	16d'\LL	.	16b-'\LL	32bb-\LLL	.
.	.	.	.	32ddd\J)	.
16A'\JJ	16d'\JJ	]]	16cc'\JJ	[16aaa\JJ	.
=114	=114	=114	=114	=114	=114
16B-'\LL	16d'\LL	p	16dd'\LL	32aaa\LLL]	p
.	.	.	.	(32ggg\	.
16G'\	16r	.	16r	32ddd\	.
.	.	.	.	32bb-\JJJ	.
16Fn'\	16r	.	16r	32aa/LLL	.
.	.	.	.	32gg/	.
16E-'\JJ	16c#X'\JJ	.	16g'\JJ	32bb-/	.
.	.	.	.	32aa/JJJ	.
16D'/LL	16d'\LL	.	16cc'/LL	32gg/LLL	.
.	.	.	.	32ff#X/	.
16Cn'/	16d'\	.	16f#X'/	32aa/	.
.	.	.	.	32ff#/JJJ	.
16BB-'/	16r	.	16r	32dd/LLL	.
.	.	.	.	32gg/	.
16GG'/JJ	16d'\JJ	.	16g'/JJ	32aa/	.
.	.	.	.	32bb-/JJJ	.
=115	=115	=115	=115	=115	=115
*	*	*	*xywh-#9:307,1476,2607,551	*xywh-#9:307,1476,2607,551	*
16FF#X'/LL	16d'\LL	.	8a'/	32aa/LLL)	.
.	.	.	.	(32dd/	.
16AA'/	16r	.	.	32ff#X/	.
.	.	.	.	32aa/JJJ	.
16FFn'/	16r	.	8r	32eeen\LLL	.
.	.	.	.	32ddd\J)	.
16AA'/JJ	16dJJ 16A'\	.	.	[16aaa\JJ	.
16EEn'/LL	16dLL 16B-'\	.	4r	32aaa\LLL]	.
.	.	.	.	(32ggg#X\	.
16AA'/	16r	.	.	32gggn\	.
.	.	.	.	32eee\JJJ	.
16GG'/	16r	.	.	32ccc#X/LLL	.
.	.	.	.	32aa/	.
16AA'/JJ	16c#XJJ 16G'\	.	.	32gg/	.
.	.	.	.	32een/JJJ)	.
=116	=116	=116	=116	=116	=116
16D'/LL	16dLL 16F#X'\	.	2r	(32dd/LLL	.
.	.	.	.	32ff#X/)	.
16AA'/	16r	.	.	32gg/	.
.	.	.	.	32aa/JJJ	.
16DD'/	16r	.	.	32gg\LLL	.
.	.	.	.	32ccc#X\	.
16AA'/JJ	16c#XJJ 16G'\	.	.	32ddd\	.
.	.	.	.	32eeen\JJJ	.
16D'/LL	8d 8F#'\	.	.	(32ddd/LLL	.
.	.	.	.	32dd/	.
16Cn'/	.	.	.	32ff#/	.
.	.	.	.	32aa/JJJ)	.
16BB-'/	8r	.	.	[8ddd\	.
16AA'/JJ	.	.	.	.	.
!LO:LB:g=original	!LO:LB:g=original	!	!	!	!
=117	=117	=117	=117	=117	=117
*xywh-#8:427,1995,2678,586	*xywh-#8:427,1995,2678,586	*	*	*	*
16GG'/LL	8d 8B- 8G\	f	8g/	32ddd/LLL]	f
.	.	.	.	(32dd/	.
16GG'/	.	.	.	32gg/	.
.	.	.	.	32bb-/JJJ	.
16BB-'/	8r	.	16r	32ddd\LLL	.
.	.	.	.	32ccc#X\J)	.
16E-'/JJ	.	.	16g'/	([16bbb-\JJ	.
16D'\LL	8.r	.	16f#X'/LL	32bbb-\LLL]	.
.	.	.	.	32aaa\)	.
16F#X'\	.	.	16a'/	(32ddd\	.
.	.	.	.	32cccn\JJJ	.
16G'\JJ	.	.	16b-'/	32bb-\LLL	.
.	.	.	.	32ddd\J)	.
*	*clefG2	*	*	*	*
16r	16d 16B-'/	.	16dd'/JJ	[16aaa\JJ	.
!	!	!	!LO:LB:g=original	!LO:LB:g=original	!
=118	=118	=118	=118	=118	=118
*	*	*	*xywh-#9:231,2007,2752,565	*xywh-#9:231,2007,2752,565	*
2r	16fnLL 16d'/	.	16bn'\LL	32aaa\LLL]	.
.	.	.	.	(32ddd\	.
.	16a-X 16f'/	.	16dd'\	32ccc\	.
.	.	.	.	32bbn\JJJ)	.
.	16g 16e-'/	.	16r	(32bb\LLL	.
.	.	.	.	32ccc\)	.
.	16fJJ 16d'/	.	16b-X'\JJ	32ggg\	.
.	.	.	.	32bb-X\JJJ	.
.	16e-LL 16c'/	.	16a'\LL	(32ggg\LLL	.
.	.	.	.	32ccc\)	.
.	16g-X 16e-'/	.	16cc'\	32bb-\	.
.	.	.	.	32aa\JJJ	.
.	16f 16d'/	.	16r	(32aa\LLL	.
.	.	.	.	32bb-\)	.
.	16dJJ 16Bn'/	.	16a-X'\JJ	32fff\	.
.	.	.	.	32aa-X\JJJ	.
=119	=119	=119	=119	=119	=119
*	*	*	*^	*	*
*	*	*	*	*	*xywh-#9:231,2007,2752,565	*
8.r	16e-'/LL	.	16g'/	8.ryy	(32fff\LLL	.
.	.	.	.	.	32eee-\JJJ)	.
.	16e- 16c'/	.	(32g/LLL	.	16r	.
.	.	.	32cc/JJJ	.	.	.
!	!	!	!LO:TX:t=P:problem=mixed beam	!	!	!
.	16cJJ 16G'/	<	32ee-/LLL	.	16r	.
.	.	.	32gg/	.	.	.
16E-'\	16r	.	32cc>\	16b- 16g/	16ryy	<
.	.	.	32ee->\JJJ)	.	.	.
16F'/LL	16r	.	16aLL 16f'\	4ryy	(32ddd\LLL	.
.	.	.	.	.	32ccc\)	.
*	*clefF4	*	*	*	*	*
16r	16c'\LL	.	16cc'\	.	32ccc'\	.
.	.	.	.	.	32ddd'\JJJ	.
16r	16An'\	.	16ff'\	.	32eee-'\LLL	.
.	.	.	.	.	32fff'\	.
16FF'/JJ	16fJJ 16c'\	.	16ee-'\JJ	.	32ggg'\	.
.	.	.	.	.	32aaan'\JJJ	.
*	*	*	*v	*v	*	*
=120	=120	=120	=120	=120	=120
8BB-/	8f 8d 8B-\	f	8dd\	(32bbb-\LLL	f
.	.	.	.	32dddd\)	.
.	.	.	.	32bbb-'\	.
.	.	.	.	32fff'\JJJ	.
8r	8r	.	8r	32ddd'/LLL	.
.	.	.	.	32bb-'/	.
.	.	.	.	32ff'/	.
.	.	.	.	32dd'/JJJ	.
8r	8r	.	8r	8b-'/	.
=:|!|:	=:|!|:	=:|!|:	=:|!|:	=:|!|:	=:|!|:
*>J	*>J	*>J	*>J	*>J	*>J
8r	8r	.	[8b-\	[8bb-\	p
*	*clefG2	*	*	*	*
!LO:LB:g=original	!LO:LB:g=original	!	!	!	!
=121	=121	=121	=121	=121	=121
*xywh-#8:462,2595,2630,517	*xywh-#8:462,2595,2630,517	*	*	*	*
8BB-'\L	16r	p	8.b-\]	8bb-\_	.
.	16fLL 16d'/	.	.	.	.
!	!	!	!	!LO:TX:b:i:t=grazioso	!
8C'\	16r	.	.	32bb-/LLL]	.
.	.	.	.	(32bb-/	.
.	16e- 16c'/	.	16r	32gg/)	.
.	.	.	.	(32aa-X/JJJ	.
8D'\	16r	.	4r	32aaa-X\LLL)	.
.	.	.	.	32ggg'\	.
.	16a-X 16B-'/	.	.	32fff'\	.
.	.	.	.	32eee-'\JJJ	.
8F'\J	16r	.	.	32ddd'\LLL	.
.	.	.	.	32ccc'\	.
.	16dJJ 16B-'/	.	.	32bb-'\	.
.	.	.	.	32aa-'\JJJ	.
!	!	!	!LO:LB:g=original	!LO:LB:g=original	!
=122	=122	=122	=122	=122	=122
*	*	*	*xywh-#9:259,2524,2710,572	*xywh-#9:259,2524,2710,572	*
16E-'\LL	16gLL 16B-'/	.	4r	32gg/LLL	.
.	.	.	.	(32ee-/	.
16F'\	16r	.	.	32gg/)	.
.	.	.	.	(32bb-/JJJ	.
16E-'\	16r	.	.	32bbn/LLL)	.
.	.	.	.	(32ff/	.
16D-X'\JJ	16fJJ 16G'/	.	.	32gg/)	.
.	.	.	.	(32bb/JJJ	.
16C'/LL	16en 16G'/	.	8r	32ccc/LLL)	.
.	.	.	.	32cc'/	.
16CC'/	16r	.	.	32een'/	.
.	.	.	.	32gg'/JJJ	.
16EEn'/	8r	.	[8cc\	[8ccc\	.
16GG'/JJ	.	.	.	.	.
=123	=123	=123	=123	=123	=123
8C'\L	16r	.	8.cc\]	8ccc\L_	.
.	16gLL 16en'/	.	.	.	.
8Dn'\	16r	.	.	32ccc\LL]	.
.	.	.	.	(32ccc\	.
.	16f 16d'/	.	16r	32aan\)	.
.	.	.	.	(32bb-X\JJJ	.
8En'\	16r	.	4r	32bbb-\LLL)	.
.	.	.	.	32aaa'\	.
.	16b- 16c'/	.	.	32ggg'\	.
.	.	.	.	32fff'\JJJ	.
8G'\J	16r	.	.	32eeen'\LLL	.
.	.	.	.	32ddd'\	.
.	16eJJ 16c'/	.	.	32ccc'\	.
.	.	.	.	32bb-'\JJJ	.
=124	=124	=124	=124	=124	=124
16F'\LL	16a-XLL 16c'/	.	2r	32aa-X/LLL	.
.	.	.	.	(32ff/	.
16G'\	16r	.	.	32aa-/)	.
.	.	.	.	(32ccc/JJJ	.
16F'\	16r	.	.	32ccc#X/LLL)	<
.	.	.	.	(32gg/	.
16E-X'\JJ	16gJJ 16An'/	<	.	32aan/)	.
.	.	.	.	32ccc#/JJJ	.
16D'/LL	16f#X 16A'/	.	.	32ddd\LLL	.
.	.	[	.	(32fff#X\	.
16DD'/	16r	.	.	32aaa\	.
.	.	.	.	32cccc#X\JJ)	.
16D'/	8r	.	.	[8ddddJ [8ddd\	[[
16F#X'/JJ	.	.	.	.	.
!LO:LB:g=original	!LO:LB:g=original	!	!	!	!
=125	=125	=125	=125	=125	=125
*xywh-#8:420,3079,2789,669	*xywh-#8:420,3079,2789,669	*	*	*	*
!	!	!	!	!LO:TX:t=P:problem=mixed beam	!
16G'\LL	8g 8d 8B-/	f	32r	32dddd]LLL 32ddd\]	.
.	.	.	16.ryy	(32ddd</	.
16GG'\	.	.	.	32ggg</	.
.	.	.	.	32bbb-</JJJ)	.
16BB-'\	8r	.	16r	(32ddd\LLL	.
.	.	.	.	32ccc#X\J	.
16E-'\JJ	.	.	16g'/	[16bbb-\JJ)	.
16D'\LL	8.r	.	16f#X'/LL	(32bbb-\LLL]	.
.	.	.	.	32aaa\)	.
16F#X'\	.	.	16a'/	(32ddd\	.
.	.	.	.	32cccn\JJJ	.
16G'\JJ	.	.	16b-'/	32bb-\LLL	.
.	.	.	.	32ddd\J	.
16r	16d 16B-'/	.	16dd'/JJ	16aaa\JJ	.
!	!	!	!LO:LB:g=original	!LO:LB:g=original	!
=126	=126	=126	=126	=126	=126
*	*	*	*xywh-#9:169,3048,2710,744	*xywh-#9:169,3048,2710,744	*
2r	16fnLL 16d'/	.	16bn'\LL	32aaa-X\LLL)	.
.	.	.	.	(32ddd\	.
.	16a-X 16f'/	.	16dd'\	32ccc\	.
.	.	.	.	32bbn\JJJ)	.
.	16g 16e-'/	.	16r	(32bb\LLL	.
.	.	.	.	32ccc\)	.
.	16fJJ 16d'/	.	16b-X'\JJ	32ggg'\	.
.	.	.	.	32bb-X'\JJJ	.
.	16e-LL 16c'/	.	16a'\LL	(32ggg\LLL	.
.	.	.	.	32ccc\)	.
.	16g-X 16e-'/	.	16cc'\	32bb-'\	.
.	.	.	.	32aa'\JJJ	.
.	16f 16d'/	.	16r	(32aa\LLL	.
.	.	.	.	32bb-\)	.
.	16dJJ 16Bn'/	.	16a-X'\JJ	32fff'\	.
.	.	.	.	32aa-X'\JJJ	.
=127	=127	=127	=127	=127	=127
!	!	!	!	!LO:TX:t=P:problem=mixed beam	!
16r	16e-LL 16c'/	.	16a-X'/	(32fff\LLL	.
.	.	.	.	32eee-\)	.
*	*	*	*	*tuplet	*
!	!	!	!	!LO:TUP:b	!
16A-X'\LL	16e- 16c'/	.	16ryy	(>48gg</	.
.	.	.	.	48aa</	.
.	.	.	.	48ccc</JJJ	.
16E-'\	16c< 16A<'/	.	8r	32ee-/LLL	.
.	.	.	.	32gg/	.
16C'\JJ	16E-<'/JJ	.	.	32aa-X/	.
.	.	.	.	32ccc/JJJ	.
*	*clefF4	*	*	*	*
16D'/LL	16c'\LL	.	16f#X'\LL	32bb-/LLL	.
.	.	.	.	32aan/)	.
16DD'/	16An'\	.	16an'\	(32aa/	.
.	.	.	.	32bb-/JJJ	.
16r	16F#X'\	.	16dd'\	32ccc\LLL	.
.	.	.	.	32ddd\	.
16D'/JJ	16dJJ 16A'\	.	16cc'\JJ	32eeen\	.
.	.	.	.	32fff#X\JJJ)	.
=	=	=	=	=	=
8GG/	8d 8B- 8G\	.	8b-'\	16ggg\LL	.
.	.	.	.	(32bbb-\L	.
.	.	.	.	32ggg\JJJ	.
!	!	!	!	!LO:TX:t=P:problem=mixed beam	!
8r	8r	.	16r	32ddd\LLL	.
.	.	.	.	32bb-\	.
*	*	*	*	*X8va	*
.	.	.	16ryy	48gg</	.
.	.	.	.	48dd</	.
.	.	.	.	48b-</JJJ)	.
8r	8r	.	8g/	8ryy	.
!LO:PB:g=original	!LO:PB:g=original	!	!LO:PB:g=original	!LO:PB:g=original	!
=:|!	=:|!	=:|!	=:|!	=:|!	=:|!
*xywh-#10:468,242,2673,711	*xywh-#10:468,242,2673,711	*	*xywh-#11:320,331,2592,751	*xywh-#11:320,331,2592,751	*
*>K	*>K	*>K	*>K	*>K	*>K
*M6/8	*M6/8	*	*M6/8	*M6/8	*
!	!LO:TX:a:B:t=Siciliana.	!	!	!LO:TX:a:B:t=Siciliana.	!
!	!LO:TX:a:B:t=VAR. VI.	!	!	!LO:TX:a:B:t=VAR. VI.	!
!	!	!	!	!LO:TX:b:i:t=dolce	!
8r	8r	.	8r	[8dd\	p
=128	=128	=128	=128	=128	=128
2.r	4B- 4G\	p	4g/	8.dd\L]	.
.	.	.	.	(16dd\K	.
.	8r	.	8r	8cc#X\J	.
.	4r	.	4r	8ee-\L)	.
.	.	.	.	16r	.
.	.	.	.	N(16ee-\K	.
.	(8B- 8G\	.	8r	8dd\J	.
=129	=129	=129	=129	=129	=129
*	*^	*	*	*	*
*	*	*xywh-#10:468,242,2673,711	*	*	*	*
2.r	4.ryy	[4.c\) [4.A\	.	8.g/LN)	2.r	.
.	.	.	.	(16f#X/K	.	.
.	.	.	.	8a/J	.	.
.	4c/]	8A\L]	.	8e-/L)	.	.
.	.	8G\	.	16r	.	.
.	.	.	.	(16e-/K	.	.
.	(8c/	8F#X\J	.	[8d/J	.	.
*	*v	*v	*	*	*	*
=130	=130	=130	=130	=130	=130
*	*	*	*	*^	*
*	*	*	*	*	*xywh-#11:320,331,2592,751	*
2.r	4B- 4G\)	.	8.d/L])	4r	4.ryy	.
.	.	.	(16d/K	.	.	.
.	8r	.	N[8b-/J)	8r	.	.
!	!	!	!	!	!LO:TX:t=P:problem=mixed beam	!
.	4d 4Fn\	<	8.ryy	8.r	8.b-</N]L	<
.	.	.	16r	8.ryy	(16a\	.
.	8r	.	8r	.	[8dd\J	[
*	*	*	*	*v	*v	*
=131	=131	=131	=131	=131	=131
(4.E-T\	(8B-\L	[	4g/	8.dd\L]	.
.	8A\	>	.	.	.
.	.	.	.	16cc#X\K	.
.	8G\J	.	(8c#X/	[8gg\J)	.
16qqD/LL	.	.	.	.	.
16qqE-/JJ	.	.	.	.	.
!	!	!	!	!LO:TX:t=P:problem=mixed beam	!
4D\)	4A\)	]	8d/)	(16gg\LL]	.
.	.	.	.	16ff#X\	.
.	.	.	16r	16dd\	.
.	.	.	16ryy	16d</)JJ	.
8r	8r	.	8r	[8dd\	.
!	!	!	!LO:LB:g=original	!LO:LB:g=original	!
=132	=132	=132	=132	=132	=132
*	*	*	*xywh-#11:362,1110,2572,565	*xywh-#11:362,1110,2572,565	*
4G\	4B-\	.	4g/	8.dd\L]	pp
.	.	.	.	(16dd\K	.
8r	8r	.	8r	8cc#X\J	.
8r	8r	.	8r	8.ee-\L)	<
(8GG/L	(8B-\L	pp <	(8g/L	.	.
.	.	.	.	(16ee-\K	.
8AA/J)	8c\J)	.	8f#X/J)	8dd\J	.
=133	=133	=133	=133	=133	=133
4BBn/	4d\	.	4fn/	8.g/L)	[
.	.	[	.	(16g/K	.
8r	8r	.	8r	8f#X/J	.
4C/	4c\	.	4e-/	8.b-/L)	.
.	.	.	.	(16b-/K	.
8r	8r	.	8r	8a/J	.
!LO:LB:g=original	!LO:LB:g=original	!	!	!	!
=134	=134	=134	=134	=134	=134
*xywh-#10:399,884,2660,580	*xywh-#10:399,884,2660,580	*	*	*	*
8r	8r	.	8r	8.a-X/L)	<
(8D\L	(8Bn\L	<	(8f/L	.	.
.	.	.	.	(16a-/K	.
8E-\J)	8c\J)	.	8e-/J)	8g/J	.
8r	8r	.	8r	8.dd\L)	.
(8E-\L	(8e-\L	.	(8g/L	.	.
.	.	.	.	(16cc\K	.
8En\J)	8d-X\J)	[	8b-/J)	[8gg\J	[[
=135	=135	=135	=135	=135	=135
*	*	*	*	*^	*
*	*	*	*	*	*xywh-#11:362,1110,2572,565	*
!	!	!	!	!LO:TX:b:i:t=dolce	!LO:TX:t=P:problem=mixed beam	!
4F\	4c\	p	4an/	16gg\LL]	4ryy	.
.	.	.	.	16ff\)	.	.
.	.	.	.	16ee-'\	.	.
.	.	.	.	16cc'\	.	.
(8FF/	(8e- 8c\	.	8ryy	16g<'/	8ra	.
.	.	.	.	16a<'/JJ	.	.
4BB-/)	4dn 4F\)	.	4b-\	4ryy	4r	.
*	*	*	*	*v	*v	*
=:|!|:	=:|!|:	=:|!|:	=:|!|:	=:|!|:	=:|!|:
*>L	*>L	*>L	*>L	*>L	*>L
8r	8r	.	8r	[8b-\	.
=136	=136	=136	=136	=136	=136
4C-X/	4E-\	.	4e-/	8.b-/L]	.
.	.	.	.	(16g/K	.
8r	8r	.	8r	8a-X/J	.
8r	8r	.	8r	8.ee-\L)	<
(8Cn\L	(8A-X\L	<	(8e-/L	.	.
.	.	.	.	(16dd\K	.
8E-\J)	8An\J)	[[	8g-X/J)	[8cc\J	[
!	!	!	!LO:LB:g=original	!LO:LB:g=original	!
=137	=137	=137	=137	=137	=137
*	*	*	*xywh-#11:258,1689,2592,551	*xywh-#11:258,1689,2592,551	*
4D\	4B-\	.	4f/	16cc\LL]	.
.	.	.	.	16b-\)	.
.	.	.	.	(16an\	.
.	.	.	.	16b-\	.
8r	8r	.	8r	16aa-X\	.
.	.	.	.	16ff\JJ	.
!	!	!	!	!LO:TX:t=P:problem=mixed beam	!
4r	4r	.	4.ryy	16dd\LL	.
.	.	.	.	16b-</	.
.	.	.	.	16a</)	.
.	.	.	.	(16a-X</	.
8D\	8B-\	.	.	16g</	.
.	.	.	.	16f</JJ)	.
=138	=138	=138	=138	=138	=138
4D-X\	4F\	.	4f/	8.cc\L	.
.	.	.	.	16an\K	<
8r	8r	.	8r	8b-\J	.
8r	8r	.	8r	8.bb-\L	.
(8Dn\L	(8B-\L	<	(8f/L	.	.
.	.	.	.	16aa-X\K	.
8En\J)	8d-X\J)	.	8b-/J)	([8gg\J	.
!LO:LB:g=original	!LO:LB:g=original	!	!	!	!
=139	=139	=139	=139	=139	=139
*xywh-#10:468,1465,2570,538	*xywh-#10:468,1465,2570,538	*	*	*	*
8F\	8c\	.	8a-X/	16gg\LL]	.
.	.	.	.	16ff\)	.
8r	8r	.	8r	(16een\	.
.	.	.	.	16ff\	.
(8F\L	(8c\L	.	(8a-/L	16aa-X\	.
.	.	.	.	16ff\JJ)	.
!	!	!	!	!LO:TX:t=P:problem=mixed beam	!
8G\J)	8B-\J)	.	8b-/J)	(16ee-X\LL	.
.	.	.	.	16dd\	.
8r	8r	.	16r	16dd-X\	.
.	.	.	16ryy	16e-</	.
(8GG/	(8d-X [8E-\	.	8r	16ff\)	.
.	.	.	.	[<16ee-\JJ	.
=140	=140	=140	=140	=140	=140
(8AA-X/L)	(8cL 8E-\])	f	2.r	8.eee-L 8.ee-\]	f
8C/J)	8e-\J)	.	.	.	.
.	.	.	.	(16eee-K 16ee-\	.
8r	8r	.	.	8dddnJ 8ddn\	.
16.r	16.r	.	.	8.fffL 8.ff\)	.
32AA-/	32c\	.	.	.	.
(8AA-/L	(8c\L	.	.	.	.
.	.	.	.	(16fffK 16ff\	.
8C/J)	8e-\J)	.	.	8eee-J 8ee-\	.
!	!	!	!LO:LB:g=original	!LO:LB:g=original	!
=141	=141	=141	=141	=141	=141
*	*	*	*xywh-#11:313,2317,2565,620	*xywh-#11:313,2317,2565,620	*
16.r	16.r	.	8.a-X/L	8.aa-X\L)	.
32BB-/	32d-X\	.	.	.	.
(8BB-/L	(8d-\L	.	.	.	.
.	.	.	(16a-/K	(16aa-\K	.
8D-X/J)	8f-X\J)	.	8g/J	8gg\J	.
16.r	16.r	.	8.b-/L)	8.bb-\L)	.
32C/	32e-\	.	.	.	.
(8C\L	(8e-\L	.	.	.	.
.	.	.	(16b-/K	(16bb-\K	.
8E-\J)	8g-X\J)	.	8a-/J	[8aa-\J	.
=142	=142	=142	=142	=142	=142
8r	8r	.	4.b-\)	8.aa-\L])	>
(8Dn/L	(8f\L	>	.	.	.
.	.	.	.	(16aa-X\K	.
8C#X/J)	8en\J)	.	.	8gg\J	]
!	!LO:TX:b:i:t=dolce	!	!	!LO:TX:b:i:t=dolce	!
4D\	8dn\L	]	4.b-\	8.gg\L)	.
.	8B-\	.	.	.	.
.	.	.	.	(16gg\K	.
8r	8G\J	.	.	[8eee-\J	.
=143	=143	=143	=143	=143	=143
8r	8.F#X\L	pp	4an/	16eee-\LL]	pp
.	.	.	.	16ddd\)	.
8D/L	.	.	.	16ccc#X'\	.
.	(16A\L	.	.	16cccn'\	.
(8DD/J	16d\	.	(8f#X/	(16bb-\	.
.	16c\JJ	.	.	16aan\JJ	.
4GG/)	4B-\)	.	4g/)	4gg\)	.
!LO:LB:g=original	!LO:LB:g=original	!	!	!	!
=:|!	=:|!	=:|!	=:|!	=:|!	=:|!
*xywh-#10:378,1983,2666,601	*xywh-#10:378,1983,2666,601	*	*	*	*
*>M	*>M	*>M	*>M	*>M	*>M
*M3/4	*M3/4	*	*M3/4	*M3/4	*
!	!LO:TX:a:B:t=Alla Polacca.	!	!	!LO:TX:a:B:t=Alla Polacca.	!
!	!LO:TX:a:B:t=VAR. VII.	!	!	!LO:TX:a:B:t=VAR. VII.	!
(8d^\	(8F\	.	8r	8r	.
=144	=144	=144	=144	=144	=144
*tuplet	*tuplet	*	*	*	*
!LO:TUP:a	!	!	!	!LO:TX:b:t=2	!
24c#X\LL)	24E#X/LL)	<	1.r	1.r	.
24G\	24BB-/	.	.	.	.
24A\JJ	24C/JJ	.	.	.	.
!LO:TUP:a	!LO:TUP:a	!	!	!	!
24cn\LL	24En\LL	.	.	.	.
24B-\	24D\	.	.	.	.
24A\JJ	24C\JJ	.	.	.	.
!LO:TUP:a	!	!	!	!	!
24G\LL	24BB-/LL	.	.	.	.
24F#X\	24AA#X/	.	.	.	.
24G\JJ	24BB-/JJ	.	.	.	.
!LO:TUP:a	!	!	!	!	!
24A\LL	24C/LL	.	.	.	.
24G\	24BB-/	.	.	.	.
24A\JJ	24C/JJ	.	.	.	.
16B-\LL	16D/LL	.	.	.	.
16G\	16BB-/	.	.	.	.
16Fn\	16AAn/	.	.	.	.
16E-\JJ	16GG/JJ	.	.	.	.
=145	=145	=145	=145	=145	=145
8D\L	8FF/L	.	.	.	.
16F\L	16AA/L	.	.	.	.
16E-\JJ	16GG/JJ	.	.	.	.
8D\L	8FF/L	.	.	.	.
16G\L	16BB-/L	.	.	.	.
16E-\JJ	16GG/JJ	.	.	.	.
(16D\LL	(16FF/LL	.	.	.	.
16F#X\)	16AA#X/)	.	.	.	.
16B-\	16D/	.	.	.	.
16A\JJ	16C/JJ	.	.	.	.
=146	=146	=146	=146	=146	=146
(16G\LL	(16BB-/LL	f >	4r	8r	.
16D\)	16FF/)	.	.	.	.
16BB-\	16DD/	.	.	[8dd^\	f
16AA\JJ	16CC/JJ	]	.	.	.
*	*	*	*tuplet	*	*
!	!	!	!	!LO:TUP:a	!
8GG/L	8BBB-/L	.	24r	24dd\LL]	.
.	.	.	24f#X/LL	24ff#X\	p
.	.	.	24g/JJ	24gg\JJ	.
!	!	!	!LO:TUP:a	!LO:TUP:a	!
16GG/L	16FFL 16DD/	p	24a\LL	24aa\LL	.
.	.	.	24b-\	24bb-\	.
16GG/JJ	16FFJJ 16DD/	.	.	.	.
.	.	.	24cc\JJ	24ccc\JJ	.
*	*	*	*	*8va	*
8GG/L	8FFL 8DD/	.	(16cc#X\LL	(16ccc#X\LL	<
.	.	.	16dd\	16ddd\	.
8GG/J	8FFJ 8DD/	.	16bb-\)	16bbb-\)	.
.	.	.	16bb-\JJ	16bbb-\JJ	[[
!LO:LB:g=original	!LO:LB:g=original	!	!LO:LB:g=original	!LO:LB:g=original	!
=147	=147	=147	=147	=147	=147
*xywh-#10:440,2612,2639,511	*xywh-#10:440,2612,2639,511	*	*xywh-#11:251,2979,2668,751	*xywh-#11:251,2979,2668,751	*
*	*clefG2	*	*	*	*
8AA\L	8c#X<L 8G</	.	(8.bb-\L	(8.bbb-\L	.
16AA\L	16c#<L 16G</	.	.	.	.
16AA\JJ	16c#<JJ 16G</	.	16aa\Jk	16aaa\Jk	.
*	*	*	*Xtuplet	*Xtuplet	*
8AA\L	8c#<L 8G</	.	24gg\LL)	24ggg\LL)	.
.	.	.	24een'\	24eeen'\	.
.	.	.	(24dd\JJ	(24ddd\JJ	.
8AA\	8c#< 8G</	.	24cc#X\LL)	24ccc#X\LL)	.
.	.	.	24ee'\	24eee'\	.
.	.	.	(24gg\JJ	(24ggg\JJ	.
8F#XJ 8D\	8d</J	.	8ff#X\)	24fff#X\LL)	.
.	.	.	.	24ddd'\	.
.	.	.	.	24aa'\JJ	.
(8d\	(8dd\	f	8r	8ddd\	.
*	*	*	*	*X8va	*
=148	=148	=148	=148	=148	=148
*Xtuplet	*Xtuplet	*	*	*	*
!	!	!	!	!LO:TX:b:t=2	!
24c#X\LL)	24cc#X/LL)	.	1.r	1.r	.
24G\	24g/	.	.	.	.
24A\JJ	24a/JJ	.	.	.	.
24cn\LL	24ccn\LL	.	.	.	.
24B-\	24b-\	.	.	.	.
24A\JJ	24a\JJ	.	.	.	.
24G\LL	24g/LL	<	.	.	.
24F#X\	24f#X/	.	.	.	.
24G\JJ	24g/JJ	.	.	.	.
24A\LL	24a/LL	.	.	.	.
24G\	24g/	.	.	.	.
24A\JJ	24a/JJ	.	.	.	.
16B-\LL	16b-/LL	.	.	.	.
16G\	16g/	.	.	.	.
16Fn\	16fn/	.	.	.	.
16E-\JJ	16e-/JJ	[[	.	.	.
=149	=149	=149	=149	=149	=149
8D\L	8d/L	.	.	.	.
16F\L	16f/L	.	.	.	.
16E-\JJ	16e-/JJ	.	.	.	.
8D\L	8d/L	<	.	.	.
16A\L	16a/L	.	.	.	.
16G\JJ	16g/JJ	.	.	.	.
(16F#X\LL	(16f#X/LL	.	.	.	.
16BBn\)	16Bn/)	.	.	.	.
16D'\	16d'/	.	.	.	.
16Fn'\JJ	16fn'/JJ	.	.	.	.
!LO:LB:g=original	!LO:LB:g=original	!	!	!	!
=150	=150	=150	=150	=150	=150
*xywh-#10:468,3144,2763,628	*xywh-#10:468,3144,2763,628	*	*	*	*
(16En\LL	(16en/LL	.	8r	8r	.
16C\)	16c/)	.	.	.	.
*	*	*	*	*8va	*
16E-X'\	16e-X'/	.	[>8g/	[>8gg/	sf
16D'\JJ	16d'/JJ	.	.	.	.
8C\L	8c/L	.	24g\LL]	24gg\LL]	.
.	.	.	24bn\	24bbn\	.
.	.	.	24ccn\JJ	24cccn\JJ	.
16E-\L	16cL 16G/	.	(24dd\LL	(24ddd\LL	<
.	.	.	24ee-\)	24eee-\)	.
16E-\JJ	16cJJ 16G/	.	.	.	.
.	.	.	24ff\JJ	24fff\JJ	.
8En\L	8cL 8B-/	.	(16ff#X\LL	(16fff#X\LL	.
.	.	.	16gg\	16ggg\	.
8E\J	8cJ 8B-/	.	16ddd\	16dddd\	.
.	.	.	16ccc\JJ)	16cccc\JJ)	[[
=151	=151	=151	=151	=151	=151
8F\L	8dL 8B-/	f	(24ccc\LL	(24cccc\LL	f
.	.	.	24bb-X\	24bbb-X\	.
.	.	.	24dd\JJ	24ddd\JJ	.
8F\J	8dJ 8B-/	.	24een\LL)	24eeen\LL)	.
.	.	.	24gg'\	24ggg'\	.
.	.	.	24ffn'\JJ	24fffn'\JJ	.
8r	8r	.	(4a/	(4aa/	>
(8FF/L	(8e-L 8c/	>	.	.	.
8BB-/J)	8dJ 8B-/)	]]	8b-\)	8bb-\)	]]
*	*	*	*	*X8va	*
=:|!	=:|!	=:|!	=:|!	=:|!	=:|!
*>N	*>N	*>N	*>N	*>N	*>N
!	!	!	!LO:TX:a:i:t=espress.	!	!
8r	8r	.	8b-\	8r	p
=152	=152	=152	=152	=152	=152
4r	8r	.	(2a/	2.r	.
!	!LO:TX:b:i:t=leggiero	!	!	!	!
.	16g-XLL 16e-/	p	.	.	.
.	16g-JJ 16e-/	.	.	.	.
!LO:TX:b:i:t=espress.	!	!	!	!	!
(4c\	8g-L 8e-/	.	.	.	.
.	8g-J 8e-/	.	.	.	.
4B-\	8r	.	4b-\)	.	.
.	8g- 8e-/	.	.	.	.
!LO:PB:g=original	!LO:PB:g=original	!	!LO:PB:g=original	!LO:PB:g=original	!
=153	=153	=153	=153	=153	=153
*xywh-#12:437,242,2671,685	*xywh-#12:437,242,2671,685	*	*xywh-#13:307,289,2621,662	*xywh-#13:307,289,2621,662	*
4..A\)	8fL 8e-/	.	(16bn\LL	4r	.
.	.	.	16cc\)	.	.
.	16fL 16e-/	.	(16dd\	.	.
.	16fJJ 16e-/	.	16cc\JJ)	.	.
!	!	!	!	!LO:TX:t=P:problem=mixed beam	!
.	8fL 8e-/	.	2ryy	(16cc</KL	.
.	.	.	.	8eee-\	.
.	8f 8e-/	.	.	.	.
(32A\LLL	.	.	.	[16ddd\Jk	.
32G\JJJ	.	.	.	.	.
!	!	!	!	!LO:TX:t=P:problem=mixed beam	!
8F\L)	8a 8e-/	.	.	16ddd\LL]	.
.	.	.	.	16ccc\	.
16F\L	8aJ 8c/	.	.	16aa\	.
16G\JJ	.	.	.	16ee-</JJ)	.
=154	=154	=154	=154	=154	=154
4A-X\	8fL 8Bn/	.	8.dd\L	8.r	.
.	16fL 16B/	<	.	.	.
*	*	*	*	*8va	*
.	16fJJ 16c/	.	16cc\Jk	16ccc\	<
4.G\	8fL 8d/	.	(16cc\LL	(16ccc\LL	.
.	.	.	16bn\	16bbn\	.
.	16fL 16B/	.	16ee-\	16eee-\	.
.	16fJJ 16B/	.	16dd\JJ)	16ddd\JJ)	.
.	8e-L 8c/	.	(16cc\KL	(16ccc\KL	.
.	.	.	8bb-X\)	8bbb-X\)	.
8GG/	8e-J 8c/	.	.	.	.
.	.	.	[16aa\Jk	[16aaa\Jk	.
=155	=155	=155	=155	=155	=155
8FF#X/L	8e-L 8c/	.	16aa\LL]	16aaa\LL]	.
.	.	.	(16cc\	(16ccc\	.
8FF#/J	8e-J 8c/	.	16ee-\)	16eee-\)	.
.	.	.	(16a\JJ	(16aa\JJ	.
4r	16r	.	16cc\LL)	8ccc\)	.
.	(16f#X/LL	.	(16ff#X\	.	.
*	*	*	*	*X8va	*
.	16a/)	.	16aa\)	8r	.
.	(16e-/JJ	.	(16ee-\JJ	.	.
8r	8d/L)	.	8dd\L)	8r	.
*	*	*	*	*8va	*
(8d\	(8dd/J	f	(8ddd\J	(8dddd\	f
=156	=156	=156	=156	=156	=156
*tuplet	*tuplet	*	*tuplet	*tuplet	*
!LO:TUP:a	!LO:TUP:b	!	!LO:TUP:a	!LO:TUP:a	!
24c#X\LL)	24cc#X/LL)	.	24ccc#X\LL)	24cccc#X\LL)	.
(24G\	(24g/	.	(24gg\	(24ggg\	.
24A\JJ	24a/JJ	.	24aa\JJ	24aaa\JJ	.
!LO:TUP:a	!LO:TUP:a	!	!LO:TUP:a	!LO:TUP:a	!
24cn\LL)	24ccn\LL)	.	24cccn\LL)	24ccccn\LL)	.
24B-\	24b-\	.	24bb-\	24bbb-\	.
24A\JJ	24a\JJ	.	24aa\JJ	24aaa\JJ	.
*Xtuplet	*Xtuplet	*	*Xtuplet	*Xtuplet	*
24G\LL	24g/LL	.	24gg\LL	24ggg\LL	.
24F#X\	24f#X/	.	24ff#X\	24fff#X\	.
24G\JJ	24g/JJ	.	24gg\JJ	24ggg\JJ	.
24A\LL	24a/LL	.	24aa\LL	24aaa\LL	.
24G\	24g/	.	24gg\	24ggg\	.
24A\JJ	24a/JJ	.	24aa\JJ	24aaa\JJ	.
16B-\LL	16b-/LL	.	16bb-\LL	16bbb-\LL	.
16G\	16g/	.	16gg\	16ggg\	.
16Fn\	16fn/	.	16ffn\	16fffn\	.
16E-\JJ	16e-/JJ	.	16ee-\JJ	16eee-\JJ	.
!LO:LB:g=original	!LO:LB:g=original	!	!LO:LB:g=original	!LO:LB:g=original	!
=157	=157	=157	=157	=157	=157
*xywh-#12:479,872,2595,581	*xywh-#12:479,872,2595,581	*	*xywh-#13:348,896,2552,565	*xywh-#13:348,896,2552,565	*
8D\L	8d/L	.	8dd\L	8ddd\L	.
16F\L	16f/L	.	16ff\L	16fff\L	.
16E-\JJ	16e-/JJ	.	16ee-\JJ	16eee-\JJ	.
8D\L	8d/L	.	8dd\L	8ddd\L	.
16A\L	16a/L	.	16aa\L	16aaa\L	.
16G\JJ	16g/JJ	.	16gg\JJ	16ggg\JJ	.
(16F#X\LL	(16f#X/LL	.	(16ff#X\LL	(16fff#X\LL	.
16BBn\)	16Bn/)	.	16bn\)	16bbn\)	.
16D'\	16d'/	.	16dd'\	16ddd'\	.
16Fn'\JJ	16fn'/JJ	.	16ffn'\JJ	16fffn'\JJ	.
=158	=158	=158	=158	=158	=158
*	*^	*	*	*	*
*	*	*xywh-#12:479,872,2595,581	*	*	*xywh-#13:348,896,2552,565	*
8E-\	8e-/	2ryy	.	8ee-\	8eee-\	.
*tuplet	*	*	*	*	*X8va	*
!LO:TUP:b	!	!	!	!	!	!
(24BBn^>/LL	8r	.	.	8r	8r	.
24C/	.	.	.	.	.	.
24D/JJ	.	.	.	.	.	.
8C/L)	8r	.	.	4r	8r	.
*	*clefF4	*	*	*	*8va	*
16C/L	(24F#X^\LL	.	.	.	[8eeee- [8eee-\	.
.	24G\	.	.	.	.	.
16C/JJ	.	.	.	.	.	.
.	24A\JJ	.	.	.	.	.
*	*	*	*	*tuplet	*tuplet	*
!	!	!	!	!LO:TUP:a	!LO:TUP:a	!
8C/L	8G\L)	8ryy	.	24r	24eeee-]LL 24eee-\]	.
.	.	.	.	(24a/LL	(24aa\	.
.	.	.	.	24b-/JJ	24bb-\JJ	.
!	!	!	!	!LO:TUP:a	!LO:TUP:a	!
8C/J	8G\J	(>24A^>/LL	.	24cc\LL)	24ccc\LL)	.
.	.	24B-/	.	24dd\	24ddd\	.
.	.	24c/JJ	.	24ee-\JJ	24eee-\JJ	.
*	*v	*v	*	*	*	*
=159	=159	=159	=159	=159	=159
*	*	*	*Xtuplet	*Xtuplet	*
8D\L	8B-L 8G\)	p	(24ee-\LL	(24eee-\LL	p
.	.	.	24dd\)	24ddd\)	.
.	.	.	(24f#X\JJ	(24ff#X\JJ	.
8D\J	8B-J 8G\	.	24g/LL	24gg/LL	.
.	.	.	24b-/	24bb-/	.
.	.	.	24a/JJ)	24aa/JJ)	.
8r	8r	.	(4a/	(4aa/	.
8DD/L	8cL 8F#X\	>	.	.	.
8GG/J	8B-J 8G\	]	8g/)	8gg/)	.
*	*	*	*	*X8va	*
8r	8r	.	8b-\	8r	.
*	*clefG2	*	*	*	*
=160	=160	=160	=160	=160	=160
!	!	!	!LO:TX:b:i:t=espress.	!	!
4r	8r	.	(2a/	2.r	.
.	16g-XLL 16e-/	pp	.	.	.
.	16g-JJ 16e-/	.	.	.	.
(4c\	8g-L 8e-/	.	.	.	.
.	16g-L 16e-/	.	.	.	.
.	16g-JJ 16e-/	.	.	.	.
4B-\	8g-L 8e-/	.	4b-\)	.	.
.	8g-J 8e-/	.	.	.	.
!LO:LB:g=original	!LO:LB:g=original	!	!LO:LB:g=original	!LO:LB:g=original	!
=161	=161	=161	=161	=161	=161
*xywh-#12:368,1384,2713,581	*xywh-#12:368,1384,2713,581	*	*xywh-#13:362,1965,2503,572	*xywh-#13:362,1965,2503,572	*
4..A\)	8fL 8e-/	.	(16bn\LL	4r	.
.	.	.	16cc\)	.	.
.	16fL 16e-/	.	(16dd\	.	.
.	16fJJ 16e-/	.	16cc\JJ)	.	.
!	!	!	!	!LO:TX:t=P:problem=mixed beam	!
.	8fL 8e-/	.	2ryy	(16cc</KL	.
.	.	.	.	8eee-\	.
.	8fJ 8e-/	.	.	.	.
(32A\LLL	.	.	.	[16ddd\Jk	.
32G\JJJ	.	.	.	.	.
!	!	!	!	!LO:TX:t=P:problem=mixed beam	!
8F\L)	8aL 8e-/	.	.	16ddd\LL]	.
.	.	.	.	16ccc\	.
16F\L	8aJ 8c/	.	.	16aa\	.
16G\JJ	.	.	.	16ee-</JJ)	.
=162	=162	=162	=162	=162	=162
4A-X\	8fL 8Bn/	.	(8.dd\L	8.r	.
.	16fL 16B/	<	.	.	.
*	*	*	*	*8va	*
!	!	!	!	!	!LO:HP:t=cresc. molto
.	16fJJ 16c/	.	16cc\Jk)	16ccc\	<
4.G\	8fL 8d/	.	(16cc\LL	(16ccc\LL	.
.	.	.	16bn\	16bbn\)	.
.	16fL 16B/	.	16ee-\	(16eee-\	.
.	16fJJ 16B/	.	16dd\JJ)	16ddd\JJ)	.
.	8e-L 8c/	.	(16cc\KL	(16ccc\KL	.
.	.	.	8bb-X\)	8bbb-X\)	.
8GG/	8e-J 8c/	.	.	.	.
.	.	.	[16aa\Jk	[16aaa\Jk	.
=163	=163	=163	=163	=163	=163
8FF#X/L	8e-L 8c/	.	16aa\LL]	16aaa\LL]	.
.	.	.	(16cc\	(16ccc\	.
8FF#/J	8e-J 8c/	.	16ee-\)	16eee-\)	.
.	.	.	(16a\JJ	(16aa\JJ	.
4r	16r	.	16cc\LL)	8ccc\)	.
.	(16f#X/LL	.	(16ff#X\	.	.
*	*	*	*	*X8va	*
.	16a/)	.	16aa\)	8r	.
.	(16e-/JJ	.	(16ee-\JJ	.	.
8r	8d/L)	.	8dd\L)	8r	.
*	*	*	*	*8va	*
(8d\	(8dd/J	ff	(8ddd\J	(8dddd\	ff
=164	=164	=164	=164	=164	=164
*	*tuplet	*	*tuplet	*tuplet	*
!LO:TUP:a	!LO:TUP:b	!	!LO:TUP:a	!LO:TUP:a	!
24c#X\LL)	24cc#X/LL)	.	24ccc#X\LL)	24cccc#X\LL)	.
24G\	24g/	.	(24gg\	(24ggg\	.
24A\JJ	24a/JJ	.	24aa\JJ	24aaa\JJ	.
!LO:TUP:a	!LO:TUP:a	!	!LO:TUP:a	!LO:TUP:a	!
24cn\LL	24ccn\LL	.	24cccn\LL)	24ccccn\LL)	.
24B-\	24b-\	.	24bb-\	24bbb-\	.
24A\JJ	24a\JJ	.	24aa\JJ	24aaa\JJ	.
*Xtuplet	*Xtuplet	*	*Xtuplet	*Xtuplet	*
24G\LL	24g/LL	.	24gg\LL	24ggg\LL	.
24F#X\	24f#X/	.	24ff#X\	24fff#X\	.
24G\JJ	24g/JJ	.	24gg\JJ	24ggg\JJ	.
24A\LL	24a/LL	.	24aa\LL	24aaa\LL	.
24G\	24g/	.	24gg\	24ggg\	.
24A\JJ	24a/JJ	.	24aa\JJ	24aaa\JJ	.
16B-\LL	16b-/LL	.	16bb-\LL	16bbb-\LL	.
16G\	16g/	.	16gg\	16ggg\	.
16Fn\	16fn/	.	16ffn\	16fffn\	.
16E-\JJ	16e-/JJ	.	16ee-\JJ	16eee-\JJ	.
!LO:LB:g=original	!LO:LB:g=original	!	!LO:LB:g=original	!LO:LB:g=original	!
=165	=165	=165	=165	=165	=165
*xywh-#12:499,2007,2567,525	*xywh-#12:499,2007,2567,525	*	*xywh-#13:362,1965,2503,572	*xywh-#13:362,1965,2503,572	*
8D\L	8d/L	.	8dd\L	8ddd\L	.
16F\L	16f/L	.	16ff\L	16fff\L	.
16E-\JJ	16e-/JJ	.	16ee-\JJ	16eee-\JJ	.
8D\L	8d/L	.	8dd\L	8ddd\L	.
16A\L	16a/L	.	16aa\L	16aaa\L	.
16G\JJ	16g/JJ	.	16gg\JJ	16ggg\JJ	.
16F#X\LL	16f#X/LL	.	16ff#X\LL	16fff#X\LL	.
(16BBn\	(16Bn/	.	(16bn\	(16bbn\	.
16D\)	16d/)	.	16dd\)	16ddd\)	.
(16Fn\JJ	(16fn/JJ	.	(16ffn\JJ	(16fffn\JJ	.
=166	=166	=166	=166	=166	=166
*	*^	*	*	*	*
*	*	*xywh-#12:499,2007,2567,525	*	*	*xywh-#13:362,1965,2503,572	*
8E-\L)	8e-/L)	2ryy	.	8ee-\)	8eee-\)	.
*tuplet	*	*	*	*	*X8va	*
(24BBn\L	(8G/J	.	p	8r	8r	.
24C\	.	.	.	.	.	.
24D\JJ	.	.	.	.	.	.
*	*tuplet	*	*	*	*	*
8C\L)	24G/LL)	.	.	4r	8r	.
.	(24A/	.	.	.	.	.
.	24Bn/JJ	.	.	.	.	.
8GG'\	24c/LL	.	.	.	[8eee-^\	p
.	24e-/	.	.	.	.	.
.	24f/JJ)	.	.	.	.	.
!	!	!	!	!	!LO:TX:t=P:problem=mixed beam	!
8G'\	[4g/	8r	.	16r	24eee-\LL]	.
.	.	.	.	.	N(24a</	.
.	.	.	.	16ryy	.	.
.	.	.	.	.	24b-</JJ	.
*	*	*Xtuplet	*	*tuplet	*	*
!	!	!	!	!LO:TUP:a	!	!
8GG'\J	.	(24e-\LL	.	24cc\LL	8r	.
.	.	24d\	.	24dd\	.	.
.	.	24c\JJ	.	24ee-\JJ	.	.
=167	=167	=167	=167	=167	=167	=167
*Xtuplet	*	*	*	*	*	*
(24GG/LL	8g/]	8d\)	<	8dd\LN)	4r	.
24AA/	.	.	.	.	.	.
24BBn/JJ	.	.	.	.	.	.
24C\LL	(24e-LL 24G/	4.ryy	.	8g'\J	.	.
24D\	24d/	.	.	.	.	.
24E-\JJ	24c/JJ	.	.	.	.	.
8D\L)	24Bn/LL)	.	.	4r	8r	.
.	(24B/	.	.	.	.	.
.	24c/JJ	.	.	.	.	.
8GG'\	24d/LL	.	.	.	[8fff^\	<
.	24e-/	.	.	.	.	.
.	24f/JJ)	.	.	.	.	.
!	!	!	!	!	!LO:TX:t=P:problem=mixed beam	!
8G'\	[4g/	8r	.	8ryy	24fff\LL]	.
.	.	.	.	.	N(24bn</	.
.	.	.	.	.	24cc</JJ	.
*	*	*	*	*Xtuplet	*	*
8GG'\J	.	(24f\LL	.	24dd\LL	8r	.
.	.	24e-\	.	24ee-\	.	.
.	.	24d\JJ	.	24ff\JJ	.	.
!LO:LB:g=original	!LO:LB:g=original	!LO:LB:g=original	!	!	!	!
=168	=168	=168	=168	=168	=168	=168
*xywh-#12:375,2477,2699,609	*xywh-#12:375,2477,2699,609	*xywh-#12:375,2477,2699,609	*	*	*	*
(24GG/LL	8g/]	8e-\)	.	8gg\LN)	4r	.
24BBn/	.	.	.	.	.	.
24C/JJ	.	.	.	.	.	.
24D\LL	(24fLL 24G/	2ryy	.	8g\J	.	.
24E-\	24e-/	.	.	.	.	.
24F\JJ	24d/JJ	.	.	.	.	.
8E-\L)	24c/LL)	.	.	4r	8r	.
.	(24G/	.	.	.	.	.
.	24Bn/JJ	.	.	.	.	.
8GG'\	24c/LL	.	.	.	[8ggg^\	.
.	24e-/	.	.	.	.	.
.	24f/JJ	.	.	.	.	.
!	!	!	!	!	!LO:TX:t=P:problem=mixed beam	!
8G'\	8g/L)	.	.	8ryy	24ggg\LL]	.
.	.	.	.	.	N(24bn</	.
.	.	.	.	.	24cc</JJ	.
8GG'\J	(24a-X/L	8ryy	.	24dd\LL	8r	.
.	24g/	.	.	24ee-\	.	.
.	24f/JJ	.	.	24ff\JJ	.	.
*	*v	*v	*	*	*	*
!	!	!	!LO:LB:g=original	!LO:LB:g=original	!
=169	=169	=169	=169	=169	=169
*	*	*	*xywh-#13:273,2489,2669,593	*xywh-#13:273,2489,2669,593	*
(24GG/LL	8e-/L)	.	8gg\LN)	4r	.
24BBn/	.	.	.	.	.
24C/JJ	.	.	.	.	.
24D\LL	(24fL 24G/	.	8g\J	.	.
24E-\	24e-/	.	.	.	.
24F\JJ	24d/JJ	.	.	.	.
8E-/L)	24c/LL)	.	4r	8r	.
.	(24G/	.	.	.	.
.	24A/JJ	.	.	.	.
*	*	*	*	*8va	*
8GG'/	24B-X/LL)	.	.	[8bbb-X\	.
.	(24e-/	.	.	.	.
.	24f/JJ	.	.	.	.
!	!	!	!	!LO:TUP:a:problem=klamra łukowa	!
8G'/	8g/L)	.	8r	24bbb-\LL]	.
.	.	.	.	24aaa\	.
.	.	.	.	24ggg\JJ	.
*	*	*	*	*X8va	*
!	!	!	!	!LO:TUP:a:problem=klamra łukowa	!
8EE-'/J	(8G/J	.	(24b-X\LL	24bb-\LL	.
.	.	.	24cc\	24aa\	.
.	.	.	24cc#X\JJ	24gg\JJ	.
=170	=170	=170	=170	=170	=170
[2DD/	8A/)	.	8dd\L)	8ff#X\L	.
*	*	*	*tuplet	*	*
!	!	!	!LO:TUP:a	!	!
.	8r	.	(24g#X^\L	[8dd\J	p
.	.	.	24a\	.	.
.	.	.	24bn\JJ	.	.
.	4r	.	8a/L)	16dd\LL]	.
.	.	.	.	(16dd\	.
.	.	.	(8a/	16aa\)	.
.	.	.	.	(16aa\JJ	.
(<8qBB-/	.	.	.	.	.
4AA 4DD^>/])	8r	.	8c#X/)	16aaa\LL	.
.	.	.	.	16aa\	.
*	*clefF4	*	*	*	*
.	24E-X^\LL	.	(8c#/J	16gg\	.
.	24G\	.	.	.	.
.	.	.	.	16aa\JJ	.
.	24E-\JJ	.	.	.	.
=171	=171	=171	=171	=171	=171
[2DD/	8D\L	.	8d/L)	8ff#X\L)	.
!	!	!	!LO:TUP:b	!	!
.	(8F#X\	.	(24g#X^>/L	[8dd\J	.
.	.	.	24a/	.	.
.	.	.	24bn/JJ	.	.
.	8A\)	.	8a/L)	16dd\LL]	.
.	.	.	.	(16dd\	.
.	(8F#\J	.	(8a/	16aa\)	.
.	.	.	.	(16aa\JJ	.
(<8qBB-/	.	.	.	.	.
4AA 4DD^>/])	8G\L)	.	8c#X/)	16aaa\LL	.
.	.	.	.	16aa\	.
*	*tuplet	*	*	*	*
.	24E-^\L	.	(8c#/J	16gg\	.
.	24G\	.	.	.	.
.	.	.	.	16aa\JJ	.
.	24E-\JJ	.	.	.	.
!LO:LB:g=original	!LO:LB:g=original	!	!	!	!
=172	=172	=172	=172	=172	=172
*xywh-#12:472,3017,2671,699	*xywh-#12:472,3017,2671,699	*	*	*	*
*^	*	*	*	*	*
*	*	*xywh-#12:472,3017,2671,699	*	*	*	*
!LO:N:vis=2	!	!	!	!	!	!
8DD/L	[2.DD\	8D\L	.	8d/L)	16ff#X\LL)	.
!	!	!	!	!	!	!LO:HP:t=dimin.
.	.	.	.	.	(16a\	>
*	*	*Xtuplet	*	*	*	*
(8BB-/	.	24E-\L	>	(8c#X/	16gg\	.
.	.	24G\	.	.	.	.
.	.	.	.	.	16aa\JJ	.
.	.	24E-\JJ	.	.	.	.
8AA/)	.	8D\L	.	8d/)	16ff#\LL	.
.	.	.	.	.	16a\	.
(8BB-/	.	24E-\L	.	(8c#/	16gg\	.
.	.	24G\	.	.	.	.
.	.	.	.	.	16aa\JJ	.
.	.	24E-\JJ	.	.	.	.
8AA/)	.	8D\L	.	8d/)	16ff#\LL	.
.	.	.	.	.	16a\	.
(8BB-/J	.	24E-\L	.	(8c#/J	16gg\	.
.	.	24G\	.	.	.	.
.	.	.	.	.	16aa\JJ	.
.	.	24E-\JJ	.	.	.	.
!	!	!	!	!LO:LB:g=original	!LO:LB:g=original	!
=173	=173	=173	=173	=173	=173	=173
*	*	*	*xywh-#13:307,3034,2669,606	*xywh-#13:307,3034,2669,606	*xywh-#13:307,3034,2669,606	*
8AA/)	2.DD\_	8D\L	.	8d/L)	16ff#X\LL)	.
.	.	.	.	.	(16a\J	.
8r	.	(24F#X\L	pp	(24d/L	[8aa\J	pp
.	.	24A\	.	24c#X/	.	.
.	.	24F#\JJ	.	24d/JJ	.	.
4r	.	8D\)	.	8f#X/)	16aa\LL])	.
.	.	.	.	.	(16dd\	.
.	.	8r	.	8r	16ff#\	.
.	.	.	.	.	16dd\JJ	.
4r	.	4r	.	4r	16aa\LL	.
.	.	.	.	.	16dd\	.
.	.	.	.	.	16ddd\	.
.	.	.	.	.	16dd\JJ	.
*v	*v	*	*	*	*	*
=174	=174	=174	=174	=174	=174
!	!	!	!	!LO:TX:t=P:problem=mixed beam	!
2.DD/_	8r	.	2.ryy	16fff#X\LL)	.
.	.	.	.	(16dd</	.
*	*tuplet	*	*	*	*
.	(24d\LL	.	.	16ff#X\	.
.	24A\	.	.	.	.
.	.	.	.	16dd</JJ	.
.	24d\JJ	.	.	.	.
!	!	!	!	!LO:TX:t=P:problem=mixed beam	!
.	8f#X\)	.	.	16aa\LL	.
.	.	.	.	16dd</	.
.	8r	.	.	16ddd\	.
.	.	.	.	16dd</JJ	.
*	*	*	*	*8va	*
!	!	!	!	!LO:TX:t=P:problem=mixed beam	!
.	4r	.	.	16fff#\LL	.
.	.	.	.	16ddd</	.
.	.	.	.	16aaa\	.
.	.	.	.	16ddd</JJ	.
=175	=175	=175	=175	=175	=175
*	*	*	*ped	*	*
!	!	!	!	!LO:TX:t=P:problem=mixed beam	!
8DD/]	2.r	.	2.ryy	16dddd\LL)	.
.	.	.	.	16ddd</	.
8r	.	.	.	16aa\	.
.	.	.	.	16ddd</JJ	.
!	!	!	!	!LO:TX:t=P:problem=mixed beam	!
4r	.	.	.	16ddd\LL	.
.	.	.	.	16ddd</	.
.	.	.	.	16fff#X\	.
.	.	.	.	16ddd</JJ	.
!	!	!	!	!LO:TX:t=P:problem=mixed beam	!
4r	.	.	.	16aaa\LL	.
.	.	.	.	16ddd</	.
.	.	.	.	16dddd\	.
.	.	.	.	16ddd</JJ	.
*	*clefG2	*	*	*	*
=176	=176	=176	=176	=176	=176
2.r;	2.a 2.d;/	pp	2.ddd 2.aa 2.ff#X 2.dd;\	2.ffff#X 2.fff#X;\	pp
*	*clefF4	*	*Xped	*X8va	*
!LO:PB:g=original	!LO:PB:g=original	!	!LO:PB:g=original	!LO:PB:g=original	!
=||	=||	=||	=||	=||	=||
*xywh-#14:387,263,2777,782	*xywh-#14:387,263,2777,782	*	*xywh-#15:295,235,2607,710	*xywh-#15:295,235,2607,710	*xywh-#15:295,235,2607,710
*k[f#]	*k[f#]	*	*k[f#]	*k[f#]	*
*M12/8	*M12/8	*	*M12/8	*M12/8	*
!	!LO:TX:a:B:t=Molto tranquillo.	!	!	!LO:TX:a:B:t=Molto tranquillo.	!
!	!LO:TX:a:B:t=VAR. VIII.	!	!	!LO:TX:a:B:t=VAR. VIII.	!
4.D 4.GG/	4.B\	pp	[4.dd\	8r	pp
.	.	.	.	8bb\L	.
.	.	.	.	8gg\J	.
=177	=177	=177	=177	=177	=177
*^	*	*	*	*	*
*	*	*xywh-#14:387,263,2777,782	*	*	*	*
(4.E/	2.GG\	[2.A\	.	(8dd\L]	4.ee\	.
.	.	.	.	8cc#X\	.	.
.	.	.	.	8g\J	.	.
4.E-X/)	.	.	.	8ccn\L	2.aa\	.
.	.	.	.	8b\	.	.
.	.	.	.	8a\J	.	.
2.D/	2.GG\	(8A\L]	.	8g/L	.	.
.	.	8c\	.	8f#/	.	.
.	.	8A\J)	.	8a/J	.	.
.	.	4.c 4.F#\	.	8e/L	[4.aa\	.
.	.	.	.	8e-X/	.	.
.	.	.	.	8a/J)	.	.
*v	*v	*	*	*	*	*
=178	=178	=178	=178	=178	=178
2.D 2.GG/	4B 4G\	.	[4.d/	(8aa\L]	.
.	.	.	.	8bb\	.
.	(8B\	.	.	8dd\J	.
.	8c\L	.	8d/L]	4gg\	.
.	8B\J)	.	(8g/	.	.
.	8r	.	8ccJ 8f#/	8aa\	<
2.D 2.GG/	4r	<	8bL 8g/	4bb\	.
.	.	.	8d/	.	.
.	8r	.	8eeJ 8a#X/	8ccc#X\	.
.	4.G\	[[	8ddL 8b\	4ddd\	.
.	.	.	8g\	.	.
.	.	.	8ggJ 8ccn\)	8eee\)	[
=179	=179	=179	=179	=179	=179
*	*	*	*^	*	*
2.D\	2.r	.	[4.gg/	(8dd\L	(4.aa\	.
.	.	.	.	8cc#X\	.	.
.	.	.	.	8b\J	.	.
.	.	.	(8gg/L]	4a\	4.ddd\	.
.	.	.	8ff#/	.	.	.
.	.	.	8ee/J	8f#\)	.	.
(4.E\	4r	.	8dd/L	4.g\	4.ggg\)	.
.	.	.	8cc#X/	.	.	.
.	8r	.	8ee/J	.	.	.
!	!	!	!	!	!LO:TX:t=P:problem=brak początku ligatury	!
4.A\)	(4.c#X\	.	8b\L	4.ryy	[4.ggg\	.
.	.	.	8b-X\	.	.	.
.	.	.	8ee\J	.	.	.
*	*	*	*v	*v	*	*
!	!	!	!LO:LB:g=original	!LO:LB:g=original	!
=180	=180	=180	=180	=180	=180
*	*	*	*xywh-#15:184,876,2704,558	*xywh-#15:184,876,2704,558	*
4D\	4d\)	.	4a/)	(8ggg\L]	.
.	.	.	.	8fff#\	pp
(8C#X/	([8g\	pp	(8b-X\	8eee\J	.
[4.D\)	8g\L]	.	8ccn/L	4ddd\	.
.	8f#\)	.	8a/	.	.
.	(8B-X\J	.	8g/J	8eee\	.
4.D\]	8A\L	.	8f#/L	[4.aa\	.
.	8G\	.	8e/	.	.
.	8F#\J)	.	8d/J)	.	.
4.GG/	4G\	.	[4.dd\	8aa\L])	.
.	.	.	.	(8bb\	.
.	(8Bn\	.	.	8gg\J	.
!LO:LB:g=original	!LO:LB:g=original	!	!	!	!
=181	=181	=181	=181	=181	=181
*xywh-#14:505,1080,2569,602	*xywh-#14:505,1080,2569,602	*	*	*	*
4.AA/	4g\)	.	8dd\L]	4.ee\)	.
.	.	.	(8cc#X\	.	.
.	(8G\	.	8g\J	.	.
(8DD#X/L	8F#\L	.	8ccn\L	(8aa\L	.
8EE/	8G\	.	8b\	8gg\	.
8FF#/J)	8A\J)	.	[8a\J	8dd#X\J	.
4EE/	[4.B\	<	8a/L])	8ff#\L)	<
.	.	.	(8g/	(8ee\	.
(8AA/	.	.	8d#X/J	8ff#\J	.
4GG/)	4B\]	.	8e\L	8gg\L	.
.	.	.	8b\	8aa\	.
*	*clefG2	*	*	*	*
8G\	8g/	.	[8ee\J	8bb\J)	.
=182	=182	=182	=182	=182	=182
(4.F#\	(4a/	.	8ee\L])	4.aa\	.
.	.	.	(8dd#X\	.	.
.	8d#X/	.	8a\J	.	.
4E\	8e/L	.	8ddn\L	(4gg\	.
.	8g/	.	8cc\	.	.
8Dn\)	8f#/J	[	[8b\J	8ggg\)	[
(4.C#X/	[4.e/	>	8b\L]	(4.ggg\	>
.	.	.	8a#X\)	.	.
.	.	.	([8gg\J	.	.
4.F#\)	8e/L]	.	8gg\L]	4.aa#X\)	.
.	8dn/	.	8ff#\	.	.
.	8c#X/J)	]	8ee\J)	.	]
=183	=183	=183	=183	=183	=183
(8BB/L	(8d#X/L	pp <	[4.dd#X\	2.bb\	pp
8C#X/	8e/	.	.	.	.
8D#X/J	8f#/J	[	.	.	.
4.E\)	4.g/)	>	(8dd#\L]	.	.
.	.	.	8cc#X\	.	.
.	.	.	8b\J)	.	.
(8BB/L	(8f#/L	]	[4.dd#\	2.bb\	.
8C#/	8e/	.	.	.	.
8D#/J	8f#/J	.	.	.	.
4.E\)	4g/	<	(8dd#\L]	.	<
.	.	.	8cc#\	.	.
.	8c#X/)	[[	8b\J)	.	[
!	!	!	!LO:LB:g=original	!LO:LB:g=original	!
=184	=184	=184	=184	=184	=184
*	*	*	*xywh-#15:233,1407,2683,572	*xywh-#15:233,1407,2683,572	*
[4.BB/	(8d#X/L	>	[4.ff#\	[4.bb\	>
.	8b/	.	.	.	.
.	8f#/J	.	.	.	.
8BB/]	8d#/)	]	(8ff#\L]	8bb\]	.
8r	8r	.	8dd#X\	8r	.
8r	8r	.	8b\J)	8r	.
4r	(8f#/L	>	4r	4r	]
.	8d#/	.	.	.	.
8r	8B/J)	]	8r	8r	.
!	!	!	!LO:TX:a:i:t=espress.	!	!
4.Dn 4.GG/	4.B/	pp	(4b\	[4.dddn\	p
.	.	.	8g/)	.	.
*	*clefF4	*	*	*	*
=185	=185	=185	=185	=185	=185
*xywh-#14:449,1745,2680,567	*	*xywh-#14:449,1745,2680,567	*	*	*
*^	*	*	*	*	*
*	*xywh-#14:449,1745,2680,567	*	*	*	*	*
(4.E/	2.GG\	2.A\	.	4.d/	(8ddd\L]	.
.	.	.	.	.	8ccc#X\	.
.	.	.	.	.	8gg\J	.
4.E-X/)	.	.	.	2.a/	8cccn\L	.
.	.	.	.	.	8bb\	.
.	.	.	.	.	8aa\J	.
2.D/	2.GG\	(8A\L	.	.	8gg\L	.
.	.	8c\	.	.	8ff#\	.
.	.	8A\J)	.	.	8aa\J	.
.	.	4.c 4.F#\	.	[4.a/	8ee\L	.
.	.	.	.	.	8ee-X\	.
.	.	.	.	.	8aa\J)	.
=186	=186	=186	=186	=186	=186	=186
4r	2.GG\	4B 4G\	.	(8a/L]	[4.dd\	.
.	.	.	.	8b/	.	.
8r	.	(8B\	.	8d/J	.	.
([4.D/	.	8c\L	.	4g/	8dd\L]	.
.	.	8B\J)	.	.	(8gg\	.
.	.	8r	.	8a 8f#/	8ccc\J	.
4.D/]	2.GG\	4r	<	8g/L	8bb\L	<
.	.	.	.	8d/	8gg\	.
.	.	8r	.	8cc#XJ 8a#X/	8eee\J	.
4.G/)	.	4r	.	8ddL 8b\	8ddd\L	.
.	.	.	.	8g\	8bb\	.
.	.	(8e\	[	8eeJ 8cc#\)	8ggg\J)	[
*v	*v	*	*	*	*	*
=187	=187	=187	=187	=187	=187
2.D\	8d\L	.	(4.a/	[4.ggg\	.
.	8c#X\	.	.	.	.
.	8B\J	.	.	.	.
.	4A\	.	4.dd\	8ggg\L]	.
.	.	.	.	(8fff#\	.
.	8f#\)	.	.	8eee\J	.
(4.E\	(4.g\	.	4.gg\)	8ddd\L	.
.	.	.	.	8ccc#X\	.
.	.	.	.	8ddd\J	.
4.A\)	4.c#\	.	[4.gg\	8bb\L	.
.	.	.	.	8bb-X\	.
.	.	.	.	8eee\J)	.
!	!	!	!LO:LB:g=original	!LO:LB:g=original	!
=188	=188	=188	=188	=188	=188
*	*	*	*xywh-#15:288,1925,2614,593	*xywh-#15:288,1925,2614,593	*
4D\	4d\)	.	(8gg\L]	(4aa\	pp
.	.	.	8ff#\	.	.
(8C#X/	([8G\	pp	8ee\J	8bb-X\	.
[4.D\)	8G\L]	.	4dd\	8cccn\L	.
.	8F#\	.	.	8aa\	.
.	8B-X\J	.	8ee\)	8gg\J	.
4.D\]	8A\L	.	([4.a/	8ff#\L	.
.	8G\	.	.	8ee\	.
.	8F#\J)	.	.	8dd\J)	.
4.GG/	4G\	.	8a/L]	[4.ddd\	.
.	.	.	8bn/	.	.
.	(8Bn\	.	8g/J)	.	.
!LO:LB:g=original	!LO:LB:g=original	!	!	!	!
=189	=189	=189	=189	=189	=189
*xywh-#14:435,2334,2652,651	*xywh-#14:435,2334,2652,651	*	*	*	*
(4.AA/	4.G\	.	(4.e/	(8ddd\L]	.
.	.	.	.	8ccc#X\	.
.	.	.	.	8gg\J	.
8DD#X/L	8F#\L	.	8a/L	8cccn\L	.
8EE/	8G\	.	8g/	8bb\	.
8FF#/J)	8A\J)	.	8d#X/J)	8aa\J)	.
4EE/	[4.B\	.	(8f#/L	(8aa\L	.
.	.	.	8e/	8gg\	<
(8AA/	.	.	8f#/J	8dd#X\J	.
4GG/)	4B\]	.	8g/L	8ee\L	.
.	.	.	8a/	8bb\	.
(8G\	(8G\	.	8b/J)	[8eee\J)	[
=190	=190	=190	=190	=190	=190
4.F#\	4A\	<	(4.a/	(8eee\L]	<
.	.	.	.	8ddd#X\	.
.	8d#X\	.	.	8aa\J	.
4E\	4e\	.	4g/	8dddn\L	.
.	.	.	.	8ccc\	.
8Dn\)	8f#\)	.	8gg\)	[8bb\J	.
(4.C#X/	([4.e\	>	(4.gg\	8bb\L]	.
.	.	.	.	8aa#X\)	>
.	.	.	.	([8ggg\J	.
4.F#\)	8e\L]	.	4.a#X/)	8ggg\L]	.
.	8dn\	.	.	8fff#\	.
.	8c#X\J)	]]	.	8eee\J)	]
=191	=191	=191	=191	=191	=191
*	*	*^	*	*	*
(8BB/L	(8d#X\L	p <	.	2.b\	([4.ddd#X\	p
8C#X/	8e\	.	.	.	.	.
8D#X/J	8f#\J	[	.	.	.	.
4.E\)	4.g\)	>	.	.	8ddd#\L]	.
.	.	.	.	.	8ccc#X\	.
.	.	.	.	.	8bb\J)	.
!	!	!	!LO:HP:b=2	!	!	!
(8BB/L	(8f#\L	]	<	2.b\	([4.ddd#\	<
8C#/	8e\	.	.	.	.	.
8D#/J	8f#\J	.	[	.	.	.
!	!	!	!LO:HP:b=2	!	!	!
4.E\)	4g\	<	>	.	8ddd#\L]	.
.	.	.	.	.	8ccc#\	.
.	8c#X\	.	]	.	8bb\J)	[
*	*	*v	*v	*	*	*
!	!	!	!LO:LB:g=original	!LO:LB:g=original	!
=192	=192	=192	=192	=192	=192
*	*	*	*xywh-#15:212,2477,2669,565	*xywh-#15:212,2477,2669,565	*
[4.BB/	8d#X\)	[	8b/L	([4.fff#\	>
.	8r	.	(8b/	.	.
.	8r	.	8f#/J	.	.
8BB/]	4r	.	8d#X/)	8fff#\L]	.
8r	.	.	8r	8ddd#X\	.
8r	8r	.	8r	8bb\J	]
4r	4r	.	4r	8ff#\L	.
.	.	.	.	8dd#X\	.
8r	8r	.	8r	8cc#X\J	.
(8GG#X/L	4.dn 4.Fn\	p	[4.b/	8b\)	<
8GGn/	.	.	.	8r	.
8GG#X/J)	.	.	.	8r	.
!LO:LB:g=original	!LO:LB:g=original	!	!	!	!
=193	=193	=193	=193	=193	=193
*xywh-#14:456,3013,2742,741	*xywh-#14:456,3013,2742,741	*	*	*	*
*	*^	*	*	*	*
*	*	*xywh-#14:456,3013,2742,741	*	*	*	*
2.AA/	2.cn 2.E\	2.ryy	.	(8b/L]	4r	[
.	.	.	.	8ccn/	.	>
.	.	.	.	8e/J)	8r	]
.	.	.	.	[4.a/	8r	.
.	.	.	.	.	(8ffn\L	.
.	.	.	.	.	8ee\J)	.
2.AA/	(4.d/	2.E\	.	(8a/L]	[4.ee\	<
.	.	.	.	8b/	.	.
.	.	.	.	8e/J)	.	.
.	4.G#X/)	.	.	[4.dd\	(8ee\L]	.
.	.	.	.	.	8ff\	.
.	.	.	.	.	[8ee\J	[
=194	=194	=194	=194	=194	=194	=194
([4.AA/	4A/	[4.E\	<	8dd\L]	8ee\L])	.
.	.	.	.	(8cc\	(8aa 8ee\	.
.	8r	.	.	8b\J	8ggJ 8dd\	.
8AA/L]	8ryy	8E\]	.	8a/L	8ff#XL 8cc\	.
8BB/	8r	2.ryy	.	8g/	8ee 8b\	.
8AA/J	8r	.	[	8f#/J)	8dd#XJ 8cc\)	.
!	!	!	!	!	!	!LO:HP:b=2
8GG\L)	4r	.	>	4.e/	(4bb 4b\	<
(8G\	.	.	.	.	.	.
8E\J	((8B\	.	.	.	8gg\	.
8C#X/L	4.g 4.B-X\))	.	.	[4.ee\	8ee\)	.
8BB#X/	.	4ryy	.	.	8r	[
8C#/J)	.	.	]	.	8r	.
*	*v	*v	*	*	*	*
!	!	!	!LO:LB:g=original	!LO:LB:g=original	!
=195	=195	=195	=195	=195	=195
*	*	*	*xywh-#15:295,3001,2766,655	*xywh-#15:295,3001,2766,655	*
2.D\	2.fn 2.A\	p	(8ee\L]	4r	.
.	.	.	8ffn\	.	.
.	.	.	8a\J	8r	.
.	.	.	[4.dd\)	8r	.
.	.	.	.	(8bb-X^\L	.
.	.	.	.	8aa\J)	.
2.D\	(4.g 4.A\	.	(8dd\L]	[4.aa\	.
.	.	.	8ee\	.	.
.	.	.	8a\J)	.	.
.	4.c#X\)	.	[4.gg\	8aa\L]	.
.	.	.	.	(8bb-\	.
.	.	.	.	[8aa\J	.
=196	=196	=196	=196	=196	=196
*	*^	*	*	*^	*
*	*	*	*	*	*xywh-#15:295,3001,2766,655	*xywh-#15:295,3001,2766,655	*
[4.D\	4d/	[4.A\	.	8gg\L]	8aa\L])	2.ryy	.
.	.	.	.	(8ffn\	(8ddd 8aa\	.	.
.	8r	.	.	8ee\J	8cccJ 8gg\	.	.
(8D\L]	8ryy	8A\]	.	8dd\L	8bbnL 8ffn\	.	.
8E\	8r	2.ryy	.	8cc\	8aa 8ee\	.	.
[8D\J	8r	.	.	8b\J)	8gg#XJ 8ffn\)	.	.
8D/L]	4r	.	>	(8e/L	[4.aa/	(4ee\	>
8C#X/	.	.	.	8a/	.	.	.
8Cn/J)	8r	.	.	8f#X/J)	.	8ee-X\	.
4.BB/	4r	.	.	[4.dd\	(8aa/L]	8dd\)	.
.	.	4ryy	.	.	8bb/	8r	.
*	*clefG2	*	*	*	*	*	*
.	8f#/	.	]	.	8aa/J)	8r	]
*	*v	*v	*	*	*v	*v	*
=197	=197	=197	=197	=197	=197
*	*	*	*^	*	*
(4.E\	4g/	pp	(8dd\L]	2.ryy	(4.ggn\	pp
.	.	.	8cc#X\	.	.	.
.	8r	.	8g\J	.	.	.
4.D#X\)	4f#/	.	8ccn\L	.	4aa\	.
.	.	.	8b\	.	.	.
.	8r	.	8a\J)	.	8ccc\)	.
2.E\	4r	<	(8g/L	4.g\	[4.bb\	<
.	.	.	8b/	.	.	.
.	8r	.	8ee/J)	.	.	.
.	(4.B/	[[	[4.gg\	4.ryy	(8bb\L]	.
.	.	.	.	.	8eee\	.
.	.	.	.	.	8ggg\J)	[
*	*	*	*v	*v	*	*
!LO:PB:g=original	!LO:PB:g=original	!	!LO:PB:g=original	!LO:PB:g=original	!
=198	=198	=198	=198	=198	=198
*xywh-#16:507,290,2591,767	*xywh-#16:507,290,2591,767	*	*xywh-#17:312,269,2622,759	*xywh-#17:312,269,2622,759	*
(4.BB/	4.d/)	<	8gg\L]	(4.ggg\	.
.	.	.	(8ff#\	.	.
.	.	.	8dd\J	.	.
4.GG/)	[4.g/	.	8ffn\L	4.bb\	<
.	.	.	8ee\	.	.
.	.	.	[8dd#X\J	.	.
([4.C/	(4g/]	>	8dd#\L]	4ccc\)	.
.	.	.	8ee\	.	.
.	8fn/	.	8b\J)	(8gg#X\	>
4C/]	4e/	.	4cc\	8aa\L	.
.	.	.	.	8ee\	.
8D\)	8d/)	]	(8cc\	8ff#\J)	]
=199	=199	=199	=199	=199	=199
(8GG/L	(8d/L	pp <	[4.b/)	(2.ggn\	pp
8AA/	8c/	.	.	.	.
8BB/J	8d/J	[	.	.	.
4.C/)	4.e-X/)	>	(8b/L]	.	.
.	.	.	8a/	.	.
.	.	]	8g/J)	.	.
(8GG/L	(8d/L	<	[4.b/	[2.ggg\)	.
8AA/	8c/	.	.	.	.
8BB/J	8d/J	[	.	.	.
4.C/)	4e-/	>	(8b/L]	.	.
.	.	.	8a/	.	.
.	8A/)	]	8g/J)	.	.
=200	=200	=200	=200	=200	=200
*	*^	*	*	*	*
*	*	*	*	*	*	*
*	*	*xywh-#16:507,290,2591,767	*	*	*xywh-#17:312,269,2622,759	*
[4.GG/	(8B/L	1ryy	.	[4.dd\	4.ggg\_	.
.	8g/	.	.	.	.	.
.	8d/J	.	.	.	.	.
8GG/]	8B/L	.	>	8dd\]	8ggg\]	.
8r	8b/	.	.	8r	8r	.
8r	8a/J	.	.	8r	8r	.
4r	8g/L	.	.	2.r	4r	.
.	8d/	.	.	.	.	.
8r	8c/J	8ryy	.	.	8r	.
(8GG#X\L	8B/L	4.Fn</	] p	.	[4.bb\	<[
8GGn\	8d/	.	.	.	.	.
8GG#X\J)	8B/J)	.	.	.	.	.
!LO:LB:g=original	!LO:LB:g=original	!LO:LB:g=original	!	!	!	!
=201	=201	=201	=201	=201	=201	=201
*xywh-#16:431,1002,2653,656	*xywh-#16:431,1002,2653,656	*xywh-#16:431,1002,2653,656	*	*	*	*
2.E 2.AA/	([4.e/	2.c\	.	1.r	(8bb\L]	>
.	.	.	.	.	8ccc\	.
.	.	.	.	.	8ee\J)	]
.	8e/L]	.	.	.	[4.aa\	.
.	8fn/	.	.	.	.	.
.	8e/J)	.	.	.	.	.
2.E 2.AA/	([4.e/	4.d\	.	.	(8aa\L]	<
.	.	.	.	.	8bb\	.
.	.	.	.	.	8ee\J)	.
.	8e/L]	4.G#X\	.	.	[4.ddd\	[[
.	8f/	.	.	.	.	.
.	8e/J)	.	.	.	.	.
*	*v	*v	*	*	*	*
!	!	!	!LO:LB:g=original	!LO:LB:g=original	!
=202	=202	=202	=202	=202	=202
*	*	*	*xywh-#17:250,952,2781,724	*xywh-#17:250,952,2781,724	*
4.E 4.AA/	8e 8A/	.	8r	8ddd\L]	<
.	8r	.	(8a/L	(8ccc\	.
.	8r	.	8g/J	8bbJ 8ee\	.
(4BB/	4r	<	8f#/L	8aaL 8dd#X\	.
.	.	.	8e/	8gg 8ee\	.
8AA/	8r	.	8d#X/J)	8ff#J 8cc\)	.
8GG/L)	4r	.	(4b\	(4.ee\	.
(8G/	.	.	.	.	.
8E/J	(8gg\	.	8g/	.	.
8C#X/L	4.gg-X 4.ee\)	>	4.e/)	[4.eee\	>
8BB#X/	.	.	.	.	.
8C#/J)	.	]	.	.	]
=203	=203	=203	=203	=203	=203
*	*^	*	*	*	*
*	*	*	*	*	*xywh-#17:250,952,2781,724	*
2.D\	2.dddn 2.ff#\	2.ryy	p	([4.a/	(8eee\L])	p
.	.	.	.	.	8fffn\	.
.	.	.	.	.	8aa\J)	.
.	.	.	.	8a/L]	[4.ddd\	.
.	.	.	.	8b-X/	.	>
.	.	.	.	8a/J)	.	]
2.D\	(4.eee/	2.ff#\	.	([4.a/	(8ddd\L]	.
.	.	.	.	.	8eee\	.
.	.	.	.	.	8aa\J)	.
.	4.ccc#X/)	.	.	8a/L]	[4.ggg\	.
.	.	.	.	8b-/	.	>
.	.	.	.	[>8a/J)	.	]
*	*v	*v	*	*	*	*
=204	=204	=204	=204	=204	=204
*	*	*	*	*^	*
4.D\	4bb 4ff#\	<	8a\L]	8ggg\L]	2.ryy	.
.	.	.	(8dd\	(8fffn\	.	<
.	8r	.	8cc\J	8eeeJ 8aa\	.	.
4E\	4r	.	8bn/L	8dddL 8gg#X\	.	.
.	.	.	8a/	8ccc 8aa\	.	.
([8D\	8r	[	8g#X/J)	8bbJ 8ffn\	.	[
8D/L]	2.r	>	([4.a/	4.aa/	(4ee\	>
8C#X/	.	.	.	.	.	.
8Cn/J)	.	.	.	.	8ee-X\)	.
4.BB/	.	]	8a/L]	[4.ddd/	(>4dd\	.
.	.	.	8b/	.	.	.
.	.	.	8a/J)	.	8f#X</)	]
*	*	*	*	*v	*v	*
!LO:LB:g=original	!LO:LB:g=original	!	!LO:LB:g=original	!LO:LB:g=original	!
=205	=205	=205	=205	=205	=205
*xywh-#16:500,1727,2584,532	*xywh-#16:500,1727,2584,532	*	*xywh-#17:312,1587,2677,690	*xywh-#17:312,1587,2677,690	*
*	*clefF4	*	*	*	*
(4.E\	4r	pp	4.gn/	(8ddd\L]	pp
.	.	.	.	8ccc#X\	.
.	8r	.	.	8gg\J	.
*	*clefG2	*	*	*	*
4.D#X\)	(4.f#/	pp <	(4a/	8cccn\L	.
.	.	.	.	8bb\	.
.	.	.	8cc\	8aa\J)	.
2.E\	4.g/)	.	[4.b\	(8gg\L	.
.	.	.	.	8bb\	.
.	.	.	.	8eee\J)	.
.	(4.B/	[[	8b\L]	[4.ggg\	.
.	.	.	8ee\	.	.
.	.	.	[8gg\J	.	.
=206	=206	=206	=206	=206	=206
4.BB/	4.dn/)	<	4.gg\]	(8ggg\L]	<
.	.	.	.	8fff#\	.
.	.	.	.	8ddd\J	.
4.GG/	4.g/	.	4.b\	8fffn\L	.
.	.	.	.	8eee\	.
.	.	.	.	[8ddd#X\J)	.
([4.C/	4g/	.	4cc\)	(8ddd#\L]	.
.	.	.	.	8eee\	>
.	(8fn/	>	(8g#X/	8bb\J	.
4C/]	8e/)	.	8a/L	4ccc\)	.
.	8r	.	8e/	.	.
8D\)	8d/	]]	8f#/J)	8ccc\	]
=207	=207	=207	=207	=207	=207
(8GG/L	(8d/L	<	2.gn/	([4.bb\	.
8AA/	8c/	.	.	.	.
8BB/J	8d/J	[	.	.	.
4.C/)	4.e-X/)	>	.	8bb\L]	.
.	.	.	.	8aa\	.
.	.	]	.	8gg\J)	.
(8GG/L	(8d/L	<	2.gg\	([4.bb\	.
8AA/	8c/	.	.	.	.
8BB/J	8d/J	[	.	.	.
4.C/)	4.e-/)	>	.	8bb\L]	.
.	.	.	.	8aa\	.
.	.	]	.	8gg\J)	.
!	!	!	!LO:LB:g=original	!LO:LB:g=original	!
=208	=208	=208	=208	=208	=208
*	*	*	*xywh-#17:285,2297,2698,607	*xywh-#17:285,2297,2698,607	*
(8GG/L	(8B/L	.	[4.gg\	[4.ddd\	.
8BB/	8g/	.	.	.	.
8D/J	8d/J	.	.	.	.
!LO:TX:t=P:problem=mixed beam	!	!	!	!	!
8G/L	8B/)	.	8gg\]	8ddd\L]	.
8B>\	8r	.	8r	N(8bb\	.
8d>\J)	8r	.	8r	8gg\J	.
4r	4.g/	.	8r	8dd\	.
.	.	.	8b/L	8r	.
8r	.	.	8a/JN)	8r	.
4.GG/	(8B/L	.	4.g/	4.dd#X\	.
.	8A/	.	.	.	.
.	8G/J)	.	.	.	.
!LO:LB:g=original	!LO:LB:g=original	!	!	!	!
=209	=209	=209	=209	=209	=209
*xywh-#16:556,2342,2598,587	*xywh-#16:556,2342,2598,587	*	*	*	*
*	*^	*	*	*	*
*	*	*xywh-#16:556,2342,2598,587	*	*	*xywh-#17:285,2297,2698,607	*
(<8GG/L	(>8c/L	2.ryy	.	1.r	[4.ee\	.
8C/	8g/	.	.	.	.	.
8E/J	8e/J	.	.	.	.	.
!LO:TX:t=P:problem=mixed beam	!	!	!	!	!	!
8G/L	8c/L	.	.	.	4ee\]	.
8c>\	8cc/	.	.	.	.	.
8e>\J)	8g/J)	.	.	.	8r	.
4r	8e/L	(4.g\	.	.	4r	.
.	8c/	.	.	.	.	.
8r	8e-X/J	.	.	.	8r	.
4.GG/	4.e-/	8G\L	.	.	4.gg\	.
.	.	8c\	.	.	.	.
.	.	8A\J)	.	.	.	.
=210	=210	=210	=210	=210	=210	=210
*	*	*	*	*^	*	*
*	*	*	*	*	*	*xywh-#17:285,2297,2698,607	*
(<8GG/L	(8B/L	2.ryy	.	4r	1ryy	[4.gg\	pp
8BB/	8d/	.	.	.	.	.	.
8D/J	8B/J	.	.	(8dd\	.	.	.
!LO:TX:t=P:problem=mixed beam	!	!	!	!	!	!	!
8G/L	[4.G/)	.	.	8b/L	.	(8gg\L]	.
8B>\	.	.	.	8a/	.	8aa\	.
8d>\J)	.	.	.	8g/J)	.	8bb\J)	.
4r	4.g/	4.G\]	.	(<8dd\L	.	(8bb\L	.
.	.	.	.	8cc\	.	8aa\	.
8r	.	.	.	[<8b\J	8ryy	8gg\J	.
4.GG/	4r	4.ryy	.	8b\L]	4.ffn/	4ggg\	.
.	.	.	.	8a\	.	.	.
.	8r	.	.	8g\J)	.	8ddd#X\)	.
*	*v	*v	*	*	*	*	*
=211	=211	=211	=211	=211	=211	=211
(8GG/L	8r	.	[4.ee/	8cc\	2.eee\	<
8C/	(8g/L	<	.	8r	.	.
8E/J	8e/J	.	.	8r	.	.
8G\L	8c/L)	.	8ee\L]	1ryy	.	.
8A\	(8f#/	.	(8cc\	.	.	.
8B\J)	8g/J	.	8b\J	.	.	.
4.c\	8f#/)	.	8a\L	.	[4.eee-X\	.
.	8r	.	8cc\	.	.	.
.	(8g/	.	8b\J	.	.	.
4.D\	4.f#t/	.	8cc\L	.	(8eee-\L]	.
.	.	.	8b\	.	8ddd\	.
.	.	.	8a\J)	8ryy	8ccc\J)	.
.	16qqe/LL	.	.	.	.	.
.	16qqf#/JJ)	.	.	.	.	.
*	*	*	*v	*v	*	*
!LO:LB:g=original	!LO:LB:g=original	!	!LO:LB:g=original	!LO:LB:g=original	!
=212	=212	=212	=212	=212	=212
*xywh-#16:466,2978,2688,815	*xywh-#16:466,2978,2688,815	*	*xywh-#17:340,2939,2718,800	*xywh-#17:340,2939,2718,800	*
!	!	!	!	!	!LO:HP:b=2
[2.GGTT/	(8B/L	<	(8g/L	[4.bb\	<
.	8c/	.	8a/	.	.
.	8d/J	[	8b/J	.	[
!	!	!	!	!	!LO:HP:b=2
.	4.e-X/)	>	4.cc\)	(8bb\L]	>
!	!	!	!	!	!LO:HP:t=dimin.
.	.	.	.	8aa\	] >
!	!	!LO:HP:t=dimin.	!	!	!
.	.	] >	.	8gg\J)	.
!	!	!	!	!	!LO:HP:b=2
2.GGTTT/_	(8d/L	<	(8b/L	[4.bb\	<
.	8c/	.	8a/	.	.
.	8d/J	[	8b/J	.	[
!	!	!	!	!	!LO:HP:b=2
.	4.e-/)	>	4.cc\)	(8bb\L]	>
.	.	.	.	8aa\	]
.	.	]	.	8gg\J)	.
=213	=213	=213	=213	=213	=213
!	!	!	!	!LO:TX:t=P:problem=łamany łuk	!
4.GGTTT/_	[4.d/	]	[4.b/	N(<4bb\	]
.	.	.	.	8gg\	.
8qFF#/	.	.	.	.	.
8GG/]	8d/L]	.	8b/L]	8dd\	<
8r	(8d/	.	8b/	8r	.
8r	8c/J	<	8a/JN)	8r	[
4r	8B/L	.	4.g/	2.r	.
.	8d/	.	.	.	.
8r	[8fnJ 8B/	[	.	.	.
4r	8f]L 8c/	>	4.g/	.	.
.	8e 8G/	.	.	.	.
8C/	8e-XJ 8A/)	]	.	.	.
=214	=214	=214	=214	=214	=214
*^	*	*	*	*	*
*	*	*	*	*	*xywh-#17:340,2939,2718,800	*
!	!	!	!	!LO:TX:b:i:t=poco riten.	!	!
(4GG/	2.ryy	[4.d [4.B/	.	2.g/	1.r	.
!LO:TX:b:i:t=poco riten.	!	!	!	!	!	!
8BB/	.	.	.	.	.	.
!LO:TX:t=P:problem=mixed beam	!	!	!	!	!	!
8D/L)	.	8d] 8B/]	<	.	.	.
(8G>\	.	8r	.	.	.	.
!	!	!	!LO:DY:a	!	!	!
8A>\J	.	8r	[ ppp	.	.	ppp
8B>\L	4G\	4.d/	>	4.g/	.	.
8A>\	.	.	.	.	.	.
8G>\J)	8r	.	.	.	.	.
(8D/L	4.ryy	4.d 4.B 4.G/	]	4.g/	.	.
8BB/	.	.	.	.	.	.
8AA/J)	.	.	.	.	.	.
*v	*v	*	*	*	*	*
=215	=215	=215	=215	=215	=215
[2.GG/	[2.d [>2.B [2.G/	.	[2.g/	2.r	.
4.GG/]	4.d] 4.B] 4.G/]	.	4.g/]	4r	.
.	.	.	.	8r	.
==	==	==	==	==	==
*-	*-	*-	*-	*-	*-
!!!system-decoration: {(p1)}{(p2)}
!!!RDF**kern: > = above
!!!RDF**kern: < = below
!!!RDF**kern: N = linked
!!!ENC: Filip Voros
!!!END: 2022-03-17
!!!ENC: Marta Lawrence
!!!END: 2022-03-22
!!!ENC-iiif: Zuzanna Daniec
!!!END-iiif: 2022-09-17
!!!YEC: Copyright 2022 Narodowy Instytut Fryderyka Chopina (https://polishscores.org)
!!!YEM: License CC-BY-4.0 (https://creativecommons.org/licenses/by/4.0)
